looks/grayscale_g22.cube
TITLE "Generated by Foundry::LUT"
LUT_3D_SIZE 5
0.000000 0.000000 0.000000
0.053125 0.053125 0.053125
0.106250 0.106250 0.106250
0.159375 0.159375 0.159375
0.212500 0.212500 0.212500
0.178850 0.178850 0.178850
0.231975 0.231975 0.231975
0.285100 0.285100 0.285100
0.338225 0.338225 0.338225
0.391350 0.391350 0.391350
0.357700 0.357700 0.357700
0.410825 0.410825 0.410825
0.463950 0.463950 0.463950
0.517075 0.517075 0.517075
0.570200 0.570200 0.570200
0.536550 0.536550 0.536550
0.589675 0.589675 0.589675
0.642800 0.642800 0.642800
0.695925 0.695925 0.695925
0.749050 0.749050 0.749050
0.715400 0.715400 0.715400
0.768525 0.768525 0.768525
0.821650 0.821650 0.821650
0.874775 0.874775 0.874775
0.927900 0.927900 0.927900
0.018025 0.018025 0.018025
0.071150 0.071150 0.071150
0.124275 0.124275 0.124275
0.177400 0.177400 0.177400
0.230525 0.230525 0.230525
0.196875 0.196875 0.196875
0.250000 0.250000 0.250000
0.303125 0.303125 0.303125
0.356250 0.356250 0.356250
0.409375 0.409375 0.409375
0.375725 0.375725 0.375725
0.428850 0.428850 0.428850
0.481975 0.481975 0.481975
0.535100 0.535100 0.535100
0.588225 0.588225 0.588225
0.554575 0.554575 0.554575
0.607700 0.607700 0.607700
0.660825 0.660825 0.660825
0.713950 0.713950 0.713950
0.767075 0.767075 0.767075
0.733425 0.733425 0.733425
0.786550 0.786550 0.786550
0.839675 0.839675 0.839675
0.892800 0.892800 0.892800
0.945925 0.945925 0.945925
0.036050 0.036050 0.036050
0.089175 0.089175 0.089175
0.142300 0.142300 0.142300
0.195425 0.195425 0.195425
0.248550 0.248550 0.248550
0.214900 0.214900 0.214900
0.268025 0.268025 0.268025
0.321150 0.321150 0.321150
0.374275 0.374275 0.374275
0.427400 0.427400 0.427400
0.393750 0.393750 0.393750
0.446875 0.446875 0.446875
0.500000 0.500000 0.500000
0.553125 0.553125 0.553125
0.606250 0.606250 0.606250
0.572600 0.572600 0.572600
0.625725 0.625725 0.625725
0.678850 0.678850 0.678850
0.731975 0.731975 0.731975
0.785100 0.785100 0.785100
0.751450 0.751450 0.751450
0.804575 0.804575 0.804575
0.857700 0.857700 0.857700
0.910825 0.910825 0.910825
0.963950 0.963950 0.963950
0.054075 0.054075 0.054075
0.107200 0.107200 0.107200
0.160325 0.160325 0.160325
0.213450 0.213450 0.213450
0.266575 0.266575 0.266575
0.232925 0.232925 0.232925
0.286050 0.286050 0.286050
0.339175 0.339175 0.339175
0.392300 0.392300 0.392300
0.445425 0.445425 0.445425
0.411775 0.411775 0.411775
0.464900 0.464900 0.464900
0.518025 0.518025 0.518025
0.571150 0.571150 0.571150
0.624275 0.624275 0.624275
0.590625 0.590625 0.590625
0.643750 0.643750 0.643750
0.696875 0.696875 0.696875
0.750000 0.750000 0.750000
0.803125 0.803125 0.803125
0.769475 0.769475 0.769475
0.822600 0.822600 0.822600
0.875725 0.875725 0.875725
0.928850 0.928850 0.928850
0.981975 0.981975 0.981975
0.072100 0.072100 0.072100
0.125225 0.125225 0.125225
0.178350 0.178350 0.178350
0.231475 0.231475 0.231475
0.284600 0.284600 0.284600
0.250950 0.250950 0.250950
0.304075 0.304075 0.304075
0.357200 0.357200 0.357200
0.410325 0.410325 0.410325
0.463450 0.463450 0.463450
0.429800 0.429800 0.429800
0.482925 0.482925 0.482925
0.536050 0.536050 0.536050
0.589175 0.589175 0.589175
0.642300 0.642300 0.642300
0.608650 0.608650 0.608650
0.661775 0.661775 0.661775
0.714900 0.714900 0.714900
0.768025 0.768025 0.768025
0.821150 0.821150 0.821150
0.787500 0.787500 0.787500
0.840625 0.840625 0.840625
0.893750 0.893750 0.893750
0.946875 0.946875 0.946875
1.000000 1.000000 1.000000
