looks/highcontrast11_g22.cube
TITLE "Generated by Foundry::LUT"
LUT_3D_SIZE 6
0.000000 0.000000 0.000000
0.072060 0.000000 0.000000
0.178777 0.000000 0.000000
0.343810 0.000000 0.000000
0.596820 0.000000 0.000000
0.946670 0.000000 0.000000
0.000000 0.072060 0.000000
0.072060 0.072060 0.000000
0.178777 0.089389 0.000000
0.343810 0.114603 0.000000
0.596820 0.149205 0.000000
0.946670 0.189334 0.000000
0.000000 0.178777 0.000000
0.089389 0.178777 0.000000
0.178777 0.178777 0.000000
0.343810 0.229206 0.000000
0.596820 0.298410 0.000000
0.946670 0.378668 0.000000
0.000000 0.343810 0.000000
0.114603 0.343810 0.000000
0.229206 0.343810 0.000000
0.343810 0.343810 0.000000
0.596820 0.447615 0.000000
0.946670 0.568002 0.000000
0.000000 0.596820 0.000000
0.149205 0.596820 0.000000
0.298410 0.596820 0.000000
0.447615 0.596820 0.000000
0.596820 0.596820 0.000000
0.946670 0.757336 0.000000
0.000000 0.946670 0.000000
0.189334 0.946670 0.000000
0.378668 0.946670 0.000000
0.568002 0.946670 0.000000
0.757336 0.946670 0.000000
0.946670 0.946670 0.000000
0.000000 0.000000 0.072060
0.072060 0.000000 0.072060
0.178777 0.000000 0.089389
0.343810 0.000000 0.114603
0.596820 0.000000 0.149205
0.946670 0.000000 0.189334
0.000000 0.072060 0.072060
0.089389 0.089389 0.089389
0.250713 0.093097 0.093097
0.491508 0.105312 0.105312
0.823131 0.123539 0.123539
1.000000 0.316142 0.316142
0.000000 0.178777 0.089389
0.093097 0.250713 0.093097
0.250713 0.250713 0.093097
0.491508 0.298410 0.105312
0.823131 0.356736 0.123539
1.000000 0.487107 0.316142
0.000000 0.343810 0.114603
0.105312 0.491508 0.105312
0.298410 0.491508 0.105312
0.491508 0.491508 0.105312
0.823131 0.589934 0.123539
1.000000 0.658071 0.316142
0.000000 0.596820 0.149205
0.123539 0.823131 0.123539
0.356736 0.823131 0.123539
0.589934 0.823131 0.123539
0.823131 0.823131 0.123539
1.000000 0.829036 0.316142
0.000000 0.946670 0.189334
0.316142 1.000000 0.316142
0.487107 1.000000 0.316142
0.658071 1.000000 0.316142
0.829036 1.000000 0.316142
1.000000 1.000000 0.316142
0.000000 0.000000 0.178777
0.089389 0.000000 0.178777
0.178777 0.000000 0.178777
0.343810 0.000000 0.229207
0.596820 0.000000 0.298410
0.946670 0.000000 0.378669
0.000000 0.089389 0.178777
0.093097 0.093097 0.250713
0.250713 0.093097 0.250713
0.491508 0.105312 0.298410
0.823131 0.123539 0.356736
1.000000 0.316142 0.487107
0.000000 0.178777 0.178777
0.093097 0.250713 0.250713
0.298410 0.298410 0.298410
0.607465 0.339205 0.339205
0.879330 0.436812 0.436812
1.000000 0.613335 0.613335
0.000000 0.343810 0.229206
0.105312 0.491508 0.298410
0.339205 0.607465 0.339205
0.607465 0.607465 0.339205
0.879330 0.658071 0.436812
1.000000 0.742224 0.613335
0.000000 0.596820 0.298410
0.123539 0.823131 0.356736
0.436812 0.879330 0.436812
0.658071 0.879330 0.436812
0.879330 0.879330 0.436812
1.000000 0.871112 0.613335
0.000000 0.946670 0.378668
0.316142 1.000000 0.487107
0.613335 1.000000 0.613335
0.742224 1.000000 0.613335
0.871112 1.000000 0.613335
1.000000 1.000000 0.613335
0.000000 0.000000 0.343810
0.114603 0.000000 0.343810
0.229206 0.000000 0.343810
0.343810 0.000000 0.343810
0.596820 0.000000 0.447615
0.946670 0.000000 0.568002
0.000000 0.114603 0.343810
0.105312 0.105312 0.491508
0.298410 0.105312 0.491508
0.491508 0.105312 0.491508
0.823131 0.123539 0.589934
1.000000 0.316142 0.658071
0.000000 0.229206 0.343810
0.105312 0.298410 0.491508
0.339205 0.339205 0.607465
0.607465 0.339205 0.607465
0.879330 0.436812 0.658071
1.000000 0.613335 0.742224
0.000000 0.343810 0.343810
0.105312 0.491508 0.491508
0.339205 0.607465 0.607465
0.658071 0.658071 0.658071
0.895299 0.718036 0.718036
1.000000 0.802836 0.802836
0.000000 0.596820 0.447615
0.123539 0.823131 0.589934
0.436812 0.879330 0.658071
0.718036 0.895299 0.718036
0.895299 0.895299 0.718036
1.000000 0.901418 0.802836
0.000000 0.946670 0.568002
0.316142 1.000000 0.658071
0.613335 1.000000 0.742224
0.802836 1.000000 0.802836
0.901418 1.000000 0.802836
1.000000 1.000000 0.802836
0.000000 0.000000 0.596820
0.149205 0.000000 0.596820
0.298410 0.000000 0.596820
0.447615 0.000000 0.596820
0.596820 0.000000 0.596820
0.946670 0.000000 0.757336
0.000000 0.149205 0.596820
0.123539 0.123539 0.823131
0.356736 0.123539 0.823131
0.589934 0.123539 0.823131
0.823131 0.123539 0.823131
1.000000 0.316142 0.829036
0.000000 0.298410 0.596820
0.123539 0.356736 0.823131
0.436812 0.436812 0.879330
0.658071 0.436812 0.879330
0.879330 0.436812 0.879330
1.000000 0.613335 0.871112
0.000000 0.447615 0.596820
0.123539 0.589934 0.823131
0.436812 0.658071 0.879330
0.718036 0.718036 0.895299
0.895299 0.718036 0.895299
1.000000 0.802836 0.901418
0.000000 0.596820 0.596820
0.123539 0.823131 0.823131
0.436812 0.879330 0.879330
0.718036 0.895299 0.895299
0.901418 0.901418 0.901418
1.000000 0.918877 0.918877
0.000000 0.946670 0.757336
0.316142 1.000000 0.829036
0.613335 1.000000 0.871112
0.802836 1.000000 0.901418
0.918877 1.000000 0.918877
1.000000 1.000000 0.918877
0.000000 0.000000 0.946670
0.189334 0.000000 0.946670
0.378668 0.000000 0.946670
0.568002 0.000000 0.946670
0.757336 0.000000 0.946670
0.946670 0.000000 0.946670
0.000000 0.189334 0.946670
0.316142 0.316142 1.000000
0.487107 0.316142 1.000000
0.658071 0.316142 1.000000
0.829036 0.316142 1.000000
1.000000 0.316142 1.000000
0.000000 0.378668 0.946670
0.316142 0.487107 1.000000
0.613335 0.613335 1.000000
0.742224 0.613335 1.000000
0.871112 0.613335 1.000000
1.000000 0.613335 1.000000
0.000000 0.568002 0.946670
0.316142 0.658071 1.000000
0.613335 0.742224 1.000000
0.802836 0.802836 1.000000
0.901418 0.802836 1.000000
1.000000 0.802836 1.000000
0.000000 0.757336 0.946670
0.316142 0.829036 1.000000
0.613335 0.871112 1.000000
0.802836 0.901418 1.000000
0.918877 0.918877 1.000000
1.000000 0.918877 1.000000
0.000000 0.946670 0.946670
0.316142 1.000000 1.000000
0.613335 1.000000 1.000000
0.802836 1.000000 1.000000
0.918877 1.000000 1.000000
1.000000 1.000000 1.000000
