looks/highcontrast11_g22.cube
TITLE "Generated by Foundry::LUT"
LUT_3D_SIZE 11
0.000000 0.000000 0.000000
0.031457 0.000000 0.000000
0.072060 0.000000 0.000000
0.119952 0.000000 0.000000
0.178777 0.000000 0.000000
0.252180 0.000000 0.000000
0.343810 0.000000 0.000000
0.457301 0.000000 0.000000
0.596820 0.000000 0.000000
0.763445 0.000000 0.000000
0.946670 0.000000 0.000000
0.000000 0.031457 0.000000
0.031457 0.031457 0.000000
0.072060 0.036030 0.000000
0.119952 0.039984 0.000000
0.178777 0.044694 0.000000
0.252180 0.050436 0.000000
0.343810 0.057302 0.000000
0.457301 0.065329 0.000000
0.596820 0.074602 0.000000
0.763445 0.084827 0.000000
0.946670 0.094667 0.000000
0.000000 0.072060 0.000000
0.036030 0.072060 0.000000
0.072060 0.072060 0.000000
0.119952 0.079968 0.000000
0.178777 0.089389 0.000000
0.252180 0.100872 0.000000
0.343810 0.114603 0.000000
0.457301 0.130658 0.000000
0.596820 0.149205 0.000000
0.763445 0.169654 0.000000
0.946670 0.189334 0.000000
0.000000 0.119952 0.000000
0.039984 0.119952 0.000000
0.079968 0.119952 0.000000
0.119952 0.119952 0.000000
0.178777 0.134083 0.000000
0.252180 0.151308 0.000000
0.343810 0.171905 0.000000
0.457301 0.195986 0.000000
0.596820 0.223807 0.000000
0.763445 0.254482 0.000000
0.946670 0.284001 0.000000
0.000000 0.178777 0.000000
0.044694 0.178777 0.000000
0.089389 0.178777 0.000000
0.134083 0.178777 0.000000
0.178777 0.178777 0.000000
0.252180 0.201744 0.000000
0.343810 0.229206 0.000000
0.457301 0.261315 0.000000
0.596820 0.298410 0.000000
0.763445 0.339309 0.000000
0.946670 0.378668 0.000000
0.000000 0.252180 0.000000
0.050436 0.252180 0.000000
0.100872 0.252180 0.000000
0.151308 0.252180 0.000000
0.201744 0.252180 0.000000
0.252180 0.252180 0.000000
0.343810 0.286508 0.000000
0.457301 0.326644 0.000000
0.596820 0.373012 0.000000
0.763445 0.424136 0.000000
0.946670 0.473335 0.000000
0.000000 0.343810 0.000000
0.057302 0.343810 0.000000
0.114603 0.343810 0.000000
0.171905 0.343810 0.000000
0.229206 0.343810 0.000000
0.286508 0.343810 0.000000
0.343810 0.343810 0.000000
0.457301 0.391973 0.000000
0.596820 0.447615 0.000000
0.763445 0.508963 0.000000
0.946670 0.568002 0.000000
0.000000 0.457301 0.000000
0.065329 0.457301 0.000000
0.130658 0.457301 0.000000
0.195986 0.457301 0.000000
0.261315 0.457301 0.000000
0.326644 0.457301 0.000000
0.391973 0.457301 0.000000
0.457301 0.457301 0.000000
0.596820 0.522217 0.000000
0.763445 0.593790 0.000000
0.946670 0.662669 0.000000
0.000000 0.596820 0.000000
0.074602 0.596820 0.000000
0.149205 0.596820 0.000000
0.223807 0.596820 0.000000
0.298410 0.596820 0.000000
0.373012 0.596820 0.000000
0.447615 0.596820 0.000000
0.522217 0.596820 0.000000
0.596820 0.596820 0.000000
0.763445 0.678618 0.000000
0.946670 0.757336 0.000000
0.000000 0.763445 0.000000
0.084827 0.763445 0.000000
0.169654 0.763445 0.000000
0.254482 0.763445 0.000000
0.339309 0.763445 0.000000
0.424136 0.763445 0.000000
0.508963 0.763445 0.000000
0.593790 0.763445 0.000000
0.678618 0.763445 0.000000
0.763445 0.763445 0.000000
0.946670 0.852003 0.000000
0.000000 0.946670 0.000000
0.094667 0.946670 0.000000
0.189334 0.946670 0.000000
0.284001 0.946670 0.000000
0.378668 0.946670 0.000000
0.473335 0.946670 0.000000
0.568002 0.946670 0.000000
0.662669 0.946670 0.000000
0.757336 0.946670 0.000000
0.852003 0.946670 0.000000
0.946670 0.946670 0.000000
0.000000 0.000000 0.031457
0.031457 0.000000 0.031457
0.072060 0.000000 0.036030
0.119952 0.000000 0.039984
0.178777 0.000000 0.044694
0.252180 0.000000 0.050436
0.343810 0.000000 0.057301
0.457301 0.000000 0.065329
0.596820 0.000000 0.074602
0.763445 0.000000 0.084827
0.946670 0.000000 0.094667
0.000000 0.031457 0.031457
0.036030 0.036030 0.036030
0.087471 0.032481 0.032481
0.147231 0.031546 0.031546
0.219271 0.032909 0.032909
0.308081 0.035729 0.035729
0.417709 0.039592 0.039592
0.552453 0.044367 0.044367
0.713657 0.049788 0.049788
0.891633 0.055037 0.055037
1.000000 0.134803 0.134803
0.000000 0.072060 0.036030
0.032481 0.087471 0.032481
0.087471 0.087471 0.032481
0.147231 0.089389 0.031546
0.219271 0.095030 0.032909
0.308081 0.103817 0.035729
0.417709 0.115216 0.039592
0.552453 0.129048 0.044367
0.713657 0.144627 0.049788
0.891633 0.159612 0.055037
1.000000 0.230936 0.134803
0.000000 0.119952 0.039984
0.031546 0.147231 0.031546
0.089389 0.147231 0.031546
0.147231 0.147231 0.031546
0.219271 0.157150 0.032909
0.308081 0.171905 0.035729
0.417709 0.190839 0.039592
0.552453 0.213729 0.044367
0.713657 0.239465 0.049788
0.891633 0.264186 0.055037
1.000000 0.327069 0.134803
0.000000 0.178777 0.044694
0.032909 0.219271 0.032909
0.095030 0.219271 0.032909
0.157150 0.219271 0.032909
0.219271 0.219271 0.032909
0.308081 0.239993 0.035729
0.417709 0.266462 0.039592
0.552453 0.298410 0.044367
0.713657 0.334303 0.049788
0.891633 0.368761 0.055037
1.000000 0.423202 0.134803
0.000000 0.252180 0.050436
0.035729 0.308081 0.035729
0.103817 0.308081 0.035729
0.171905 0.308081 0.035729
0.239993 0.308081 0.035729
0.308081 0.308081 0.035729
0.417709 0.342086 0.039592
0.552453 0.383091 0.044367
0.713657 0.429142 0.049788
0.891633 0.473335 0.055037
1.000000 0.519335 0.134803
0.000000 0.343810 0.057302
0.039592 0.417709 0.039592
0.115216 0.417709 0.039592
0.190839 0.417709 0.039592
0.266462 0.417709 0.039592
0.342086 0.417709 0.039592
0.417709 0.417709 0.039592
0.552453 0.467772 0.044367
0.713657 0.523980 0.049788
0.891633 0.577909 0.055037
1.000000 0.615468 0.134803
0.000000 0.457301 0.065329
0.044367 0.552453 0.044367
0.129048 0.552453 0.044367
0.213729 0.552453 0.044367
0.298410 0.552453 0.044367
0.383091 0.552453 0.044367
0.467772 0.552453 0.044367
0.552453 0.552453 0.044367
0.713657 0.618818 0.049788
0.891633 0.682484 0.055037
1.000000 0.711601 0.134803
0.000000 0.596820 0.074602
0.049788 0.713657 0.049788
0.144627 0.713657 0.049788
0.239465 0.713657 0.049788
0.334303 0.713657 0.049788
0.429142 0.713657 0.049788
0.523980 0.713657 0.049788
0.618818 0.713657 0.049788
0.713657 0.713657 0.049788
0.891633 0.787058 0.055037
1.000000 0.807734 0.134803
0.000000 0.763445 0.084827
0.055037 0.891633 0.055037
0.159612 0.891633 0.055037
0.264186 0.891633 0.055037
0.368761 0.891633 0.055037
0.473335 0.891633 0.055037
0.577909 0.891633 0.055037
0.682484 0.891633 0.055037
0.787058 0.891633 0.055037
0.891633 0.891633 0.055037
1.000000 0.903867 0.134803
0.000000 0.946670 0.094667
0.134803 1.000000 0.134803
0.230936 1.000000 0.134803
0.327069 1.000000 0.134803
0.423202 1.000000 0.134803
0.519335 1.000000 0.134803
0.615468 1.000000 0.134803
0.711601 1.000000 0.134803
0.807734 1.000000 0.134803
0.903867 1.000000 0.134803
1.000000 1.000000 0.134803
0.000000 0.000000 0.072060
0.036030 0.000000 0.072060
0.072060 0.000000 0.072060
0.119952 0.000000 0.079968
0.178777 0.000000 0.089389
0.252180 0.000000 0.100872
0.343810 0.000000 0.114603
0.457301 0.000000 0.130658
0.596820 0.000000 0.149205
0.763445 0.000000 0.169654
0.946670 0.000000 0.189334
0.000000 0.036030 0.072060
0.032481 0.032481 0.087471
0.087471 0.032481 0.087471
0.147231 0.031546 0.089389
0.219271 0.032909 0.095030
0.308081 0.035729 0.103817
0.417709 0.039592 0.115216
0.552453 0.044367 0.129047
0.713657 0.049788 0.144627
0.891633 0.055037 0.159612
1.000000 0.134803 0.230936
0.000000 0.072060 0.072060
0.032481 0.087471 0.087471
0.089389 0.089389 0.089389
0.161820 0.090359 0.090359
0.250713 0.093097 0.093097
0.359269 0.098033 0.098033
0.491508 0.105312 0.105312
0.648974 0.114471 0.114471
0.823131 0.123539 0.123539
0.943576 0.191227 0.191227
1.000000 0.316142 0.316142
0.000000 0.119952 0.079968
0.031546 0.147231 0.089389
0.090359 0.161820 0.090359
0.161820 0.161820 0.090359
0.250713 0.171905 0.093097
0.359269 0.185111 0.098033
0.491508 0.201861 0.105312
0.648974 0.221372 0.114471
0.823131 0.240138 0.123539
0.943576 0.298705 0.191227
1.000000 0.401624 0.316142
0.000000 0.178777 0.089389
0.032909 0.219271 0.095030
0.093097 0.250713 0.093097
0.171905 0.250713 0.093097
0.250713 0.250713 0.093097
0.359269 0.272190 0.098033
0.491508 0.298410 0.105312
0.648974 0.328272 0.114471
0.823131 0.356736 0.123539
0.943576 0.406184 0.191227
1.000000 0.487107 0.316142
0.000000 0.252180 0.100872
0.035729 0.308081 0.103817
0.098033 0.359269 0.098033
0.185112 0.359269 0.098033
0.272190 0.359269 0.098033
0.359269 0.359269 0.098033
0.491508 0.394959 0.105312
0.648974 0.435173 0.114471
0.823131 0.473335 0.123539
0.943576 0.513662 0.191227
1.000000 0.572589 0.316142
0.000000 0.343810 0.114603
0.039592 0.417709 0.115216
0.105312 0.491508 0.105312
0.201861 0.491508 0.105312
0.298410 0.491508 0.105312
0.394959 0.491508 0.105312
0.491508 0.491508 0.105312
0.648974 0.542073 0.114471
0.823131 0.589934 0.123539
0.943576 0.621141 0.191227
1.000000 0.658071 0.316142
0.000000 0.457301 0.130658
0.044367 0.552453 0.129048
0.114471 0.648974 0.114471
0.221372 0.648974 0.114471
0.328272 0.648974 0.114471
0.435173 0.648974 0.114471
0.542073 0.648974 0.114471
0.648974 0.648974 0.114471
0.823131 0.706532 0.123539
0.943576 0.728619 0.191227
1.000000 0.743553 0.316142
0.000000 0.596820 0.149205
0.049788 0.713657 0.144627
0.123539 0.823131 0.123539
0.240138 0.823131 0.123539
0.356736 0.823131 0.123539
0.473335 0.823131 0.123539
0.589934 0.823131 0.123539
0.706532 0.823131 0.123539
0.823131 0.823131 0.123539
0.943576 0.836098 0.191227
1.000000 0.829036 0.316142
0.000000 0.763445 0.169654
0.055037 0.891633 0.159612
0.191227 0.943576 0.191227
0.298705 0.943576 0.191227
0.406184 0.943576 0.191227
0.513662 0.943576 0.191227
0.621141 0.943576 0.191227
0.728619 0.943576 0.191227
0.836098 0.943576 0.191227
0.943576 0.943576 0.191227
1.000000 0.914518 0.316142
0.000000 0.946670 0.189334
0.134803 1.000000 0.230936
0.316142 1.000000 0.316142
0.401624 1.000000 0.316142
0.487107 1.000000 0.316142
0.572589 1.000000 0.316142
0.658071 1.000000 0.316142
0.743553 1.000000 0.316142
0.829036 1.000000 0.316142
0.914518 1.000000 0.316142
1.000000 1.000000 0.316142
0.000000 0.000000 0.119952
0.039984 0.000000 0.119952
0.079968 0.000000 0.119952
0.119952 0.000000 0.119952
0.178777 0.000000 0.134083
0.252180 0.000000 0.151308
0.343810 0.000000 0.171905
0.457301 0.000000 0.195986
0.596820 0.000000 0.223807
0.763445 0.000000 0.254482
0.946670 0.000000 0.284001
0.000000 0.039984 0.119952
0.031546 0.031546 0.147231
0.089389 0.031546 0.147231
0.147231 0.031546 0.147231
0.219271 0.032909 0.157150
0.308081 0.035729 0.171905
0.417709 0.039592 0.190839
0.552453 0.044367 0.213729
0.713657 0.049788 0.239465
0.891633 0.055037 0.264186
1.000000 0.134803 0.327069
0.000000 0.079968 0.119952
0.031546 0.089389 0.147231
0.090359 0.090359 0.161820
0.161820 0.090359 0.161820
0.250713 0.093097 0.171905
0.359269 0.098033 0.185112
0.491508 0.105312 0.201861
0.648974 0.114471 0.221371
0.823131 0.123539 0.240137
0.943576 0.191227 0.298705
1.000000 0.316142 0.401624
0.000000 0.119952 0.119952
0.031546 0.147231 0.147231
0.090359 0.161820 0.161820
0.171905 0.171905 0.171905
0.275306 0.181996 0.181996
0.403131 0.193689 0.193689
0.556719 0.206726 0.206726
0.728322 0.218348 0.218348
0.870272 0.264531 0.264531
0.949163 0.366979 0.366979
1.000000 0.479002 0.479002
0.000000 0.178777 0.134083
0.032909 0.219271 0.157150
0.093097 0.250713 0.171905
0.181996 0.275306 0.181996
0.275306 0.275306 0.181996
0.403131 0.298410 0.193689
0.556719 0.323390 0.206726
0.728322 0.345841 0.218348
0.870272 0.385679 0.264531
0.949163 0.464010 0.366979
1.000000 0.553430 0.479002
0.000000 0.252180 0.151308
0.035729 0.308081 0.171905
0.098033 0.359269 0.185111
0.193689 0.403131 0.193689
0.298410 0.403131 0.193689
0.403131 0.403131 0.193689
0.556719 0.440055 0.206726
0.728322 0.473335 0.218348
0.870272 0.506827 0.264531
0.949163 0.561040 0.366979
1.000000 0.627859 0.479002
0.000000 0.343810 0.171905
0.039592 0.417709 0.190839
0.105312 0.491508 0.201861
0.206726 0.556719 0.206726
0.323390 0.556719 0.206726
0.440055 0.556719 0.206726
0.556719 0.556719 0.206726
0.728322 0.600829 0.218348
0.870272 0.627976 0.264531
0.949163 0.658071 0.366979
1.000000 0.702287 0.479002
0.000000 0.457301 0.195986
0.044367 0.552453 0.213729
0.114471 0.648974 0.221372
0.218348 0.728322 0.218348
0.345841 0.728322 0.218348
0.473335 0.728322 0.218348
0.600829 0.728322 0.218348
0.728322 0.728322 0.218348
0.870272 0.749124 0.264531
0.949163 0.755102 0.366979
1.000000 0.776715 0.479002
0.000000 0.596820 0.223808
0.049788 0.713657 0.239465
0.123539 0.823131 0.240138
0.264531 0.870272 0.264531
0.385679 0.870272 0.264531
0.506827 0.870272 0.264531
0.627976 0.870272 0.264531
0.749124 0.870272 0.264531
0.870272 0.870272 0.264531
0.949163 0.852132 0.366979
1.000000 0.851143 0.479002
0.000000 0.763445 0.254482
0.055037 0.891633 0.264186
0.191227 0.943576 0.298705
0.366979 0.949163 0.366979
0.464010 0.949163 0.366979
0.561040 0.949163 0.366979
0.658071 0.949163 0.366979
0.755102 0.949163 0.366979
0.852132 0.949163 0.366979
0.949163 0.949163 0.366979
1.000000 0.925572 0.479002
0.000000 0.946670 0.284001
0.134803 1.000000 0.327069
0.316142 1.000000 0.401624
0.479002 1.000000 0.479002
0.553430 1.000000 0.479002
0.627859 1.000000 0.479002
0.702287 1.000000 0.479002
0.776715 1.000000 0.479002
0.851143 1.000000 0.479002
0.925572 1.000000 0.479002
1.000000 1.000000 0.479002
0.000000 0.000000 0.178777
0.044694 0.000000 0.178777
0.089389 0.000000 0.178777
0.134083 0.000000 0.178777
0.178777 0.000000 0.178777
0.252180 0.000000 0.201744
0.343810 0.000000 0.229207
0.457301 0.000000 0.261315
0.596820 0.000000 0.298410
0.763445 0.000000 0.339309
0.946670 0.000000 0.378669
0.000000 0.044694 0.178777
0.032909 0.032909 0.219271
0.095030 0.032909 0.219271
0.157150 0.032909 0.219271
0.219271 0.032909 0.219271
0.308081 0.035729 0.239993
0.417709 0.039592 0.266463
0.552453 0.044367 0.298410
0.713657 0.049788 0.334303
0.891633 0.055037 0.368761
1.000000 0.134803 0.423202
0.000000 0.089389 0.178777
0.032909 0.095030 0.219271
0.093097 0.093097 0.250713
0.171905 0.093097 0.250713
0.250713 0.093097 0.250713
0.359269 0.098033 0.272190
0.491508 0.105312 0.298410
0.648974 0.114471 0.328272
0.823131 0.123539 0.356736
0.943576 0.191227 0.406184
1.000000 0.316142 0.487107
0.000000 0.134083 0.178777
0.032909 0.157150 0.219271
0.093097 0.171905 0.250713
0.181996 0.181996 0.275306
0.275306 0.181996 0.275306
0.403131 0.193689 0.298410
0.556719 0.206726 0.323390
0.728322 0.218348 0.345841
0.870272 0.264531 0.385679
0.949163 0.366979 0.464009
1.000000 0.479002 0.553430
0.000000 0.178777 0.178777
0.032909 0.219271 0.219271
0.093097 0.250713 0.250713
0.181996 0.275306 0.275306
0.298410 0.298410 0.298410
0.442502 0.320943 0.320943
0.607465 0.339205 0.339205
0.765722 0.369081 0.369081
0.879330 0.436812 0.436812
0.954893 0.524109 0.524109
1.000000 0.613335 0.613335
0.000000 0.252180 0.201744
0.035729 0.308081 0.239993
0.098033 0.359269 0.272190
0.193689 0.403131 0.298410
0.320943 0.442502 0.320943
0.442502 0.442502 0.320943
0.607465 0.473335 0.339205
0.765722 0.501294 0.369081
0.879330 0.547442 0.436812
0.954893 0.610266 0.524109
1.000000 0.677779 0.613335
0.000000 0.343810 0.229206
0.039592 0.417709 0.266462
0.105312 0.491508 0.298410
0.206726 0.556719 0.323390
0.339205 0.607465 0.339205
0.473335 0.607465 0.339205
0.607465 0.607465 0.339205
0.765722 0.633508 0.369081
0.879330 0.658071 0.436812
0.954893 0.696423 0.524109
1.000000 0.742224 0.613335
0.000000 0.457301 0.261315
0.044367 0.552453 0.298410
0.114471 0.648974 0.328272
0.218348 0.728322 0.345841
0.369081 0.765722 0.369081
0.501295 0.765722 0.369081
0.633508 0.765722 0.369081
0.765722 0.765722 0.369081
0.879330 0.768700 0.436812
0.954893 0.782579 0.524109
1.000000 0.806668 0.613335
0.000000 0.596820 0.298410
0.049788 0.713657 0.334303
0.123539 0.823131 0.356736
0.264531 0.870272 0.385679
0.436812 0.879330 0.436812
0.547442 0.879330 0.436812
0.658071 0.879330 0.436812
0.768700 0.879330 0.436812
0.879330 0.879330 0.436812
0.954893 0.868736 0.524109
1.000000 0.871112 0.613335
0.000000 0.763445 0.339309
0.055037 0.891633 0.368761
0.191227 0.943576 0.406184
0.366979 0.949163 0.464010
0.524109 0.954893 0.524109
0.610266 0.954893 0.524109
0.696423 0.954893 0.524109
0.782579 0.954893 0.524109
0.868736 0.954893 0.524109
0.954893 0.954893 0.524109
1.000000 0.935556 0.613335
0.000000 0.946670 0.378668
0.134803 1.000000 0.423202
0.316142 1.000000 0.487107
0.479002 1.000000 0.553430
0.613335 1.000000 0.613335
0.677779 1.000000 0.613335
0.742224 1.000000 0.613335
0.806668 1.000000 0.613335
0.871112 1.000000 0.613335
0.935556 1.000000 0.613335
1.000000 1.000000 0.613335
0.000000 0.000000 0.252180
0.050436 0.000000 0.252180
0.100872 0.000000 0.252180
0.151308 0.000000 0.252180
0.201744 0.000000 0.252180
0.252180 0.000000 0.252180
0.343810 0.000000 0.286508
0.457301 0.000000 0.326644
0.596820 0.000000 0.373013
0.763445 0.000000 0.424136
0.946670 0.000000 0.473335
0.000000 0.050436 0.252180
0.035729 0.035729 0.308081
0.103817 0.035729 0.308081
0.171905 0.035729 0.308081
0.239993 0.035729 0.308081
0.308081 0.035729 0.308081
0.417709 0.039592 0.342086
0.552453 0.044367 0.383091
0.713657 0.049788 0.429142
0.891633 0.055037 0.473335
1.000000 0.134803 0.519335
0.000000 0.100872 0.252180
0.035729 0.103817 0.308081
0.098033 0.098033 0.359269
0.185112 0.098033 0.359269
0.272190 0.098033 0.359269
0.359269 0.098033 0.359269
0.491508 0.105312 0.394959
0.648974 0.114471 0.435173
0.823131 0.123539 0.473335
0.943576 0.191227 0.513662
1.000000 0.316142 0.572589
0.000000 0.151308 0.252180
0.035729 0.171905 0.308081
0.098033 0.185112 0.359269
0.193689 0.193689 0.403131
0.298410 0.193689 0.403131
0.403131 0.193689 0.403131
0.556719 0.206726 0.440055
0.728322 0.218348 0.473335
0.870272 0.264531 0.506828
0.949163 0.366979 0.561040
1.000000 0.479002 0.627859
0.000000 0.201744 0.252180
0.035729 0.239993 0.308081
0.098033 0.272190 0.359269
0.193689 0.298410 0.403131
0.320943 0.320943 0.442502
0.442502 0.320943 0.442502
0.607465 0.339205 0.473335
0.765722 0.369081 0.501295
0.879330 0.436812 0.547442
0.954893 0.524109 0.610266
1.000000 0.613335 0.677779
0.000000 0.252180 0.252180
0.035729 0.308081 0.308081
0.098033 0.359269 0.359269
0.193689 0.403131 0.403131
0.320943 0.442502 0.442502
0.473335 0.473335 0.473335
0.636282 0.498521 0.498521
0.778064 0.538078 0.538078
0.888312 0.590690 0.590690
0.959818 0.653517 0.653517
1.000000 0.719687 0.719687
0.000000 0.343810 0.286508
0.039592 0.417709 0.342086
0.105312 0.491508 0.394959
0.206726 0.556719 0.440055
0.339205 0.607465 0.473335
0.498521 0.636282 0.498521
0.636282 0.636282 0.498521
0.778064 0.658071 0.538078
0.888312 0.689897 0.590690
0.959818 0.730093 0.653517
1.000000 0.775750 0.719687
0.000000 0.457301 0.326644
0.044367 0.552453 0.383091
0.114471 0.648974 0.435173
0.218348 0.728322 0.473335
0.369081 0.765722 0.501294
0.538078 0.778064 0.538078
0.658071 0.778064 0.538078
0.778064 0.778064 0.538078
0.888312 0.789105 0.590690
0.959818 0.806668 0.653517
1.000000 0.831812 0.719687
0.000000 0.596820 0.373012
0.049788 0.713657 0.429142
0.123539 0.823131 0.473335
0.264531 0.870272 0.506827
0.436812 0.879330 0.547442
0.590690 0.888312 0.590690
0.689897 0.888312 0.590690
0.789105 0.888312 0.590690
0.888312 0.888312 0.590690
0.959818 0.883243 0.653517
1.000000 0.887875 0.719687
0.000000 0.763445 0.424136
0.055037 0.891633 0.473335
0.191227 0.943576 0.513662
0.366979 0.949163 0.561040
0.524109 0.954893 0.610266
0.653517 0.959818 0.653517
0.730093 0.959818 0.653517
0.806668 0.959818 0.653517
0.883243 0.959818 0.653517
0.959818 0.959818 0.653517
1.000000 0.943937 0.719687
0.000000 0.946670 0.473335
0.134803 1.000000 0.519335
0.316142 1.000000 0.572589
0.479002 1.000000 0.627859
0.613335 1.000000 0.677779
0.719687 1.000000 0.719687
0.775750 1.000000 0.719687
0.831812 1.000000 0.719687
0.887875 1.000000 0.719687
0.943937 1.000000 0.719687
1.000000 1.000000 0.719687
0.000000 0.000000 0.343810
0.057302 0.000000 0.343810
0.114603 0.000000 0.343810
0.171905 0.000000 0.343810
0.229206 0.000000 0.343810
0.286508 0.000000 0.343810
0.343810 0.000000 0.343810
0.457301 0.000000 0.391973
0.596820 0.000000 0.447615
0.763445 0.000000 0.508963
0.946670 0.000000 0.568002
0.000000 0.057302 0.343810
0.039592 0.039592 0.417709
0.115216 0.039592 0.417709
0.190839 0.039592 0.417709
0.266462 0.039592 0.417709
0.342086 0.039592 0.417709
0.417709 0.039592 0.417709
0.552453 0.044367 0.467772
0.713657 0.049788 0.523980
0.891633 0.055037 0.577910
1.000000 0.134803 0.615468
0.000000 0.114603 0.343810
0.039592 0.115216 0.417709
0.105312 0.105312 0.491508
0.201861 0.105312 0.491508
0.298410 0.105312 0.491508
0.394959 0.105312 0.491508
0.491508 0.105312 0.491508
0.648974 0.114471 0.542073
0.823131 0.123539 0.589934
0.943576 0.191227 0.621141
1.000000 0.316142 0.658071
0.000000 0.171905 0.343810
0.039592 0.190839 0.417709
0.105312 0.201861 0.491508
0.206726 0.206726 0.556719
0.323390 0.206726 0.556719
0.440055 0.206726 0.556719
0.556719 0.206726 0.556719
0.728322 0.218348 0.600829
0.870272 0.264531 0.627976
0.949163 0.366979 0.658071
1.000000 0.479002 0.702287
0.000000 0.229206 0.343810
0.039592 0.266462 0.417709
0.105312 0.298410 0.491508
0.206726 0.323390 0.556719
0.339205 0.339205 0.607465
0.473335 0.339205 0.607465
0.607465 0.339205 0.607465
0.765722 0.369081 0.633508
0.879330 0.436812 0.658071
0.954893 0.524109 0.696423
1.000000 0.613335 0.742224
0.000000 0.286508 0.343810
0.039592 0.342086 0.417709
0.105312 0.394959 0.491508
0.206726 0.440055 0.556719
0.339205 0.473335 0.607465
0.498521 0.498521 0.636282
0.636282 0.498521 0.636282
0.778064 0.538078 0.658071
0.888312 0.590690 0.689897
0.959818 0.653517 0.730093
1.000000 0.719687 0.775750
0.000000 0.343810 0.343810
0.039592 0.417709 0.417709
0.105312 0.491508 0.491508
0.206726 0.556719 0.556719
0.339205 0.607465 0.607465
0.498521 0.636282 0.636282
0.658071 0.658071 0.658071
0.792654 0.686348 0.686348
0.895299 0.718036 0.718036
0.963420 0.756268 0.756268
1.000000 0.802836 0.802836
0.000000 0.457301 0.391973
0.044367 0.552453 0.467772
0.114471 0.648974 0.542073
0.218348 0.728322 0.600829
0.369081 0.765722 0.633508
0.538078 0.778064 0.658071
0.686348 0.792654 0.686348
0.792654 0.792654 0.686348
0.895299 0.806668 0.718036
0.963420 0.825318 0.756268
1.000000 0.852127 0.802836
0.000000 0.596820 0.447615
0.049788 0.713657 0.523980
0.123539 0.823131 0.589934
0.264531 0.870272 0.627975
0.436812 0.879330 0.658071
0.590690 0.888312 0.689897
0.718036 0.895299 0.718036
0.806668 0.895299 0.718036
0.895299 0.895299 0.718036
0.963420 0.894369 0.756268
1.000000 0.901418 0.802836
0.000000 0.763445 0.508963
0.055037 0.891633 0.577909
0.191227 0.943576 0.621141
0.366979 0.949163 0.658071
0.524109 0.954893 0.696423
0.653517 0.959818 0.730093
0.756268 0.963420 0.756268
0.825318 0.963420 0.756268
0.894369 0.963420 0.756268
0.963420 0.963420 0.756268
1.000000 0.950709 0.802836
0.000000 0.946670 0.568002
0.134803 1.000000 0.615468
0.316142 1.000000 0.658071
0.479002 1.000000 0.702287
0.613335 1.000000 0.742224
0.719687 1.000000 0.775750
0.802836 1.000000 0.802836
0.852127 1.000000 0.802836
0.901418 1.000000 0.802836
0.950709 1.000000 0.802836
1.000000 1.000000 0.802836
0.000000 0.000000 0.457301
0.065329 0.000000 0.457301
0.130658 0.000000 0.457301
0.195986 0.000000 0.457301
0.261315 0.000000 0.457301
0.326644 0.000000 0.457301
0.391973 0.000000 0.457301
0.457301 0.000000 0.457301
0.596820 0.000000 0.522217
0.763445 0.000000 0.593790
0.946670 0.000000 0.662669
0.000000 0.065329 0.457301
0.044367 0.044367 0.552453
0.129048 0.044367 0.552453
0.213729 0.044367 0.552453
0.298410 0.044367 0.552453
0.383091 0.044367 0.552453
0.467772 0.044367 0.552453
0.552453 0.044367 0.552453
0.713657 0.049788 0.618818
0.891633 0.055037 0.682484
1.000000 0.134803 0.711601
0.000000 0.130658 0.457301
0.044367 0.129048 0.552453
0.114471 0.114471 0.648974
0.221371 0.114471 0.648974
0.328272 0.114471 0.648974
0.435173 0.114471 0.648974
0.542073 0.114471 0.648974
0.648974 0.114471 0.648974
0.823131 0.123539 0.706532
0.943576 0.191227 0.728619
1.000000 0.316142 0.743554
0.000000 0.195986 0.457301
0.044367 0.213729 0.552453
0.114471 0.221372 0.648974
0.218348 0.218348 0.728322
0.345841 0.218348 0.728322
0.473335 0.218348 0.728322
0.600829 0.218348 0.728322
