looks/invertcolors_pq.cube
TITLE "Generated by Foundry::LUT"
LUT_3D_SIZE 6
1.000000 1.000000 1.000000
0.853310 1.000000 1.000000
0.495528 1.000000 1.000000
0.137746 1.000000 1.000000
0.000000 1.000000 1.000000
0.000000 1.000000 1.000000
1.000000 0.853310 1.000000
0.853310 0.853310 1.000000
0.495528 0.853310 1.000000
0.137746 0.853310 1.000000
0.000000 0.853310 1.000000
0.000000 0.853310 1.000000
1.000000 0.495528 1.000000
0.853310 0.495528 1.000000
0.495528 0.495528 1.000000
0.137746 0.495528 1.000000
0.000000 0.495528 1.000000
0.000000 0.495528 1.000000
1.000000 0.137746 1.000000
0.853310 0.137746 1.000000
0.495528 0.137746 1.000000
0.137746 0.137746 1.000000
0.000000 0.137746 1.000000
0.000000 0.137746 1.000000
1.000000 0.000000 1.000000
0.853310 0.000000 1.000000
0.495528 0.000000 1.000000
0.137746 0.000000 1.000000
0.000000 0.000000 1.000000
0.000000 0.000000 1.000000
1.000000 0.000000 1.000000
0.853310 0.000000 1.000000
0.495528 0.000000 1.000000
0.137746 0.000000 1.000000
0.000000 0.000000 1.000000
0.000000 0.000000 1.000000
1.000000 1.000000 0.853310
0.853310 1.000000 0.853310
0.495528 1.000000 0.853310
0.137746 1.000000 0.853310
0.000000 1.000000 0.853310
0.000000 1.000000 0.853310
1.000000 0.853310 0.853310
0.853310 0.853310 0.853310
0.495528 0.853310 0.853310
0.137746 0.853310 0.853310
0.000000 0.853310 0.853310
0.000000 0.853310 0.853310
1.000000 0.495528 0.853310
0.853310 0.495528 0.853310
0.495528 0.495528 0.853310
0.137746 0.495528 0.853310
0.000000 0.495528 0.853310
0.000000 0.495528 0.853310
1.000000 0.137746 0.853310
0.853310 0.137746 0.853310
0.495528 0.137746 0.853310
0.137746 0.137746 0.853310
0.000000 0.137746 0.853310
0.000000 0.137746 0.853310
1.000000 0.000000 0.853310
0.853310 0.000000 0.853310
0.495528 0.000000 0.853310
0.137746 0.000000 0.853310
0.000000 0.000000 0.853310
0.000000 0.000000 0.853310
1.000000 0.000000 0.853310
0.853310 0.000000 0.853310
0.495528 0.000000 0.853310
0.137746 0.000000 0.853310
0.000000 0.000000 0.853310
0.000000 0.000000 0.853310
1.000000 1.000000 0.495528
0.853310 1.000000 0.495528
0.495528 1.000000 0.495528
0.137746 1.000000 0.495528
0.000000 1.000000 0.495528
0.000000 1.000000 0.495528
1.000000 0.853310 0.495528
0.853310 0.853310 0.495528
0.495528 0.853310 0.495528
0.137746 0.853310 0.495528
0.000000 0.853310 0.495528
0.000000 0.853310 0.495528
1.000000 0.495528 0.495528
0.853310 0.495528 0.495528
0.495528 0.495528 0.495528
0.137746 0.495528 0.495528
0.000000 0.495528 0.495528
0.000000 0.495528 0.495528
1.000000 0.137746 0.495528
0.853310 0.137746 0.495528
0.495528 0.137746 0.495528
0.137746 0.137746 0.495528
0.000000 0.137746 0.495528
0.000000 0.137746 0.495528
1.000000 0.000000 0.495528
0.853310 0.000000 0.495528
0.495528 0.000000 0.495528
0.137746 0.000000 0.495528
0.000000 0.000000 0.495528
0.000000 0.000000 0.495528
1.000000 0.000000 0.495528
0.853310 0.000000 0.495528
0.495528 0.000000 0.495528
0.137746 0.000000 0.495528
0.000000 0.000000 0.495528
0.000000 0.000000 0.495528
1.000000 1.000000 0.137746
0.853310 1.000000 0.137746
0.495528 1.000000 0.137746
0.137746 1.000000 0.137746
0.000000 1.000000 0.137746
0.000000 1.000000 0.137746
1.000000 0.853310 0.137746
0.853310 0.853310 0.137746
0.495528 0.853310 0.137746
0.137746 0.853310 0.137746
0.000000 0.853310 0.137746
0.000000 0.853310 0.137746
1.000000 0.495528 0.137746
0.853310 0.495528 0.137746
0.495528 0.495528 0.137746
0.137746 0.495528 0.137746
0.000000 0.495528 0.137746
0.000000 0.495528 0.137746
1.000000 0.137746 0.137746
0.853310 0.137746 0.137746
0.495528 0.137746 0.137746
0.137746 0.137746 0.137746
0.000000 0.137746 0.137746
0.000000 0.137746 0.137746
1.000000 0.000000 0.137746
0.853310 0.000000 0.137746
0.495528 0.000000 0.137746
0.137746 0.000000 0.137746
0.000000 0.000000 0.137746
0.000000 0.000000 0.137746
1.000000 0.000000 0.137746
0.853310 0.000000 0.137746
0.495528 0.000000 0.137746
0.137746 0.000000 0.137746
0.000000 0.000000 0.137746
0.000000 0.000000 0.137746
1.000000 1.000000 0.000000
0.853310 1.000000 0.000000
0.495528 1.000000 0.000000
0.137746 1.000000 0.000000
0.000000 1.000000 0.000000
0.000000 1.000000 0.000000
1.000000 0.853310 0.000000
0.853310 0.853310 0.000000
0.495528 0.853310 0.000000
0.137746 0.853310 0.000000
0.000000 0.853310 0.000000
0.000000 0.853310 0.000000
1.000000 0.495528 0.000000
0.853310 0.495528 0.000000
0.495528 0.495528 0.000000
0.137746 0.495528 0.000000
0.000000 0.495528 0.000000
0.000000 0.495528 0.000000
1.000000 0.137746 0.000000
0.853310 0.137746 0.000000
0.495528 0.137746 0.000000
0.137746 0.137746 0.000000
0.000000 0.137746 0.000000
0.000000 0.137746 0.000000
1.000000 0.000000 0.000000
0.853310 0.000000 0.000000
0.495528 0.000000 0.000000
0.137746 0.000000 0.000000
0.000000 0.000000 0.000000
0.000000 0.000000 0.000000
1.000000 0.000000 0.000000
0.853310 0.000000 0.000000
0.495528 0.000000 0.000000
0.137746 0.000000 0.000000
0.000000 0.000000 0.000000
0.000000 0.000000 0.000000
1.000000 1.000000 0.000000
0.853310 1.000000 0.000000
0.495528 1.000000 0.000000
0.137746 1.000000 0.000000
0.000000 1.000000 0.000000
0.000000 1.000000 0.000000
1.000000 0.853310 0.000000
0.853310 0.853310 0.000000
0.495528 0.853310 0.000000
0.137746 0.853310 0.000000
0.000000 0.853310 0.000000
0.000000 0.853310 0.000000
1.000000 0.495528 0.000000
0.853310 0.495528 0.000000
0.495528 0.495528 0.000000
0.137746 0.495528 0.000000
0.000000 0.495528 0.000000
0.000000 0.495528 0.000000
1.000000 0.137746 0.000000
0.853310 0.137746 0.000000
0.495528 0.137746 0.000000
0.137746 0.137746 0.000000
0.000000 0.137746 0.000000
0.000000 0.137746 0.000000
1.000000 0.000000 0.000000
0.853310 0.000000 0.000000
0.495528 0.000000 0.000000
0.137746 0.000000 0.000000
0.000000 0.000000 0.000000
0.000000 0.000000 0.000000
1.000000 0.000000 0.000000
0.853310 0.000000 0.000000
0.495528 0.000000 0.000000
0.137746 0.000000 0.000000
0.000000 0.000000 0.000000
0.000000 0.000000 0.000000
