looks/invertcolors_pq.cube
TITLE "Generated by Foundry::LUT"
LUT_3D_SIZE 11
1.000000 1.000000 1.000000
1.000000 1.000000 1.000000
0.853310 1.000000 1.000000
0.674419 1.000000 1.000000
0.495528 1.000000 1.000000
0.316637 1.000000 1.000000
0.137746 1.000000 1.000000
0.000000 1.000000 1.000000
0.000000 1.000000 1.000000
0.000000 1.000000 1.000000
0.000000 1.000000 1.000000
1.000000 1.000000 1.000000
1.000000 1.000000 1.000000
0.853310 1.000000 1.000000
0.674419 1.000000 1.000000
0.495528 1.000000 1.000000
0.316637 1.000000 1.000000
0.137746 1.000000 1.000000
0.000000 1.000000 1.000000
0.000000 1.000000 1.000000
0.000000 1.000000 1.000000
0.000000 1.000000 1.000000
1.000000 0.853310 1.000000
1.000000 0.853310 1.000000
0.853310 0.853310 1.000000
0.674419 0.853310 1.000000
0.495528 0.853310 1.000000
0.316637 0.853310 1.000000
0.137746 0.853310 1.000000
0.000000 0.853310 1.000000
0.000000 0.853310 1.000000
0.000000 0.853310 1.000000
0.000000 0.853310 1.000000
1.000000 0.674419 1.000000
1.000000 0.674419 1.000000
0.853310 0.674419 1.000000
0.674419 0.674419 1.000000
0.495528 0.674419 1.000000
0.316637 0.674419 1.000000
0.137746 0.674419 1.000000
0.000000 0.674419 1.000000
0.000000 0.674419 1.000000
0.000000 0.674419 1.000000
0.000000 0.674419 1.000000
1.000000 0.495528 1.000000
1.000000 0.495528 1.000000
0.853310 0.495528 1.000000
0.674419 0.495528 1.000000
0.495528 0.495528 1.000000
0.316637 0.495528 1.000000
0.137746 0.495528 1.000000
0.000000 0.495528 1.000000
0.000000 0.495528 1.000000
0.000000 0.495528 1.000000
0.000000 0.495528 1.000000
1.000000 0.316637 1.000000
1.000000 0.316637 1.000000
0.853310 0.316637 1.000000
0.674419 0.316637 1.000000
0.495528 0.316637 1.000000
0.316637 0.316637 1.000000
0.137746 0.316637 1.000000
0.000000 0.316637 1.000000
0.000000 0.316637 1.000000
0.000000 0.316637 1.000000
0.000000 0.316637 1.000000
1.000000 0.137746 1.000000
1.000000 0.137746 1.000000
0.853310 0.137746 1.000000
0.674419 0.137746 1.000000
0.495528 0.137746 1.000000
0.316637 0.137746 1.000000
0.137746 0.137746 1.000000
0.000000 0.137746 1.000000
0.000000 0.137746 1.000000
0.000000 0.137746 1.000000
0.000000 0.137746 1.000000
1.000000 0.000000 1.000000
1.000000 0.000000 1.000000
0.853310 0.000000 1.000000
0.674419 0.000000 1.000000
0.495528 0.000000 1.000000
0.316637 0.000000 1.000000
0.137746 0.000000 1.000000
0.000000 0.000000 1.000000
0.000000 0.000000 1.000000
0.000000 0.000000 1.000000
0.000000 0.000000 1.000000
1.000000 0.000000 1.000000
1.000000 0.000000 1.000000
0.853310 0.000000 1.000000
0.674419 0.000000 1.000000
0.495528 0.000000 1.000000
0.316637 0.000000 1.000000
0.137746 0.000000 1.000000
0.000000 0.000000 1.000000
0.000000 0.000000 1.000000
0.000000 0.000000 1.000000
0.000000 0.000000 1.000000
1.000000 0.000000 1.000000
1.000000 0.000000 1.000000
0.853310 0.000000 1.000000
0.674419 0.000000 1.000000
0.495528 0.000000 1.000000
0.316637 0.000000 1.000000
0.137746 0.000000 1.000000
0.000000 0.000000 1.000000
0.000000 0.000000 1.000000
0.000000 0.000000 1.000000
0.000000 0.000000 1.000000
1.000000 0.000000 1.000000
1.000000 0.000000 1.000000
0.853310 0.000000 1.000000
0.674419 0.000000 1.000000
0.495528 0.000000 1.000000
0.316637 0.000000 1.000000
0.137746 0.000000 1.000000
0.000000 0.000000 1.000000
0.000000 0.000000 1.000000
0.000000 0.000000 1.000000
0.000000 0.000000 1.000000
1.000000 1.000000 1.000000
1.000000 1.000000 1.000000
0.853310 1.000000 1.000000
0.674419 1.000000 1.000000
0.495528 1.000000 1.000000
0.316637 1.000000 1.000000
0.137746 1.000000 1.000000
0.000000 1.000000 1.000000
0.000000 1.000000 1.000000
0.000000 1.000000 1.000000
0.000000 1.000000 1.000000
1.000000 1.000000 1.000000
1.000000 1.000000 1.000000
0.853310 1.000000 1.000000
0.674419 1.000000 1.000000
0.495528 1.000000 1.000000
0.316637 1.000000 1.000000
0.137746 1.000000 1.000000
0.000000 1.000000 1.000000
0.000000 1.000000 1.000000
0.000000 1.000000 1.000000
0.000000 1.000000 1.000000
1.000000 0.853310 1.000000
1.000000 0.853310 1.000000
0.853310 0.853310 1.000000
0.674419 0.853310 1.000000
0.495528 0.853310 1.000000
0.316637 0.853310 1.000000
0.137746 0.853310 1.000000
0.000000 0.853310 1.000000
0.000000 0.853310 1.000000
0.000000 0.853310 1.000000
0.000000 0.853310 1.000000
1.000000 0.674419 1.000000
1.000000 0.674419 1.000000
0.853310 0.674419 1.000000
0.674419 0.674419 1.000000
0.495528 0.674419 1.000000
0.316637 0.674419 1.000000
0.137746 0.674419 1.000000
0.000000 0.674419 1.000000
0.000000 0.674419 1.000000
0.000000 0.674419 1.000000
0.000000 0.674419 1.000000
1.000000 0.495528 1.000000
1.000000 0.495528 1.000000
0.853310 0.495528 1.000000
0.674419 0.495528 1.000000
0.495528 0.495528 1.000000
0.316637 0.495528 1.000000
0.137746 0.495528 1.000000
0.000000 0.495528 1.000000
0.000000 0.495528 1.000000
0.000000 0.495528 1.000000
0.000000 0.495528 1.000000
1.000000 0.316637 1.000000
1.000000 0.316637 1.000000
0.853310 0.316637 1.000000
0.674419 0.316637 1.000000
0.495528 0.316637 1.000000
0.316637 0.316637 1.000000
0.137746 0.316637 1.000000
0.000000 0.316637 1.000000
0.000000 0.316637 1.000000
0.000000 0.316637 1.000000
0.000000 0.316637 1.000000
1.000000 0.137746 1.000000
1.000000 0.137746 1.000000
0.853310 0.137746 1.000000
0.674419 0.137746 1.000000
0.495528 0.137746 1.000000
0.316637 0.137746 1.000000
0.137746 0.137746 1.000000
0.000000 0.137746 1.000000
0.000000 0.137746 1.000000
0.000000 0.137746 1.000000
0.000000 0.137746 1.000000
1.000000 0.000000 1.000000
1.000000 0.000000 1.000000
0.853310 0.000000 1.000000
0.674419 0.000000 1.000000
0.495528 0.000000 1.000000
0.316637 0.000000 1.000000
0.137746 0.000000 1.000000
0.000000 0.000000 1.000000
0.000000 0.000000 1.000000
0.000000 0.000000 1.000000
0.000000 0.000000 1.000000
1.000000 0.000000 1.000000
1.000000 0.000000 1.000000
0.853310 0.000000 1.000000
0.674419 0.000000 1.000000
0.495528 0.000000 1.000000
0.316637 0.000000 1.000000
0.137746 0.000000 1.000000
0.000000 0.000000 1.000000
0.000000 0.000000 1.000000
0.000000 0.000000 1.000000
0.000000 0.000000 1.000000
1.000000 0.000000 1.000000
1.000000 0.000000 1.000000
0.853310 0.000000 1.000000
0.674419 0.000000 1.000000
0.495528 0.000000 1.000000
0.316637 0.000000 1.000000
0.137746 0.000000 1.000000
0.000000 0.000000 1.000000
0.000000 0.000000 1.000000
0.000000 0.000000 1.000000
0.000000 0.000000 1.000000
1.000000 0.000000 1.000000
1.000000 0.000000 1.000000
0.853310 0.000000 1.000000
0.674419 0.000000 1.000000
0.495528 0.000000 1.000000
0.316637 0.000000 1.000000
0.137746 0.000000 1.000000
0.000000 0.000000 1.000000
0.000000 0.000000 1.000000
0.000000 0.000000 1.000000
0.000000 0.000000 1.000000
1.000000 1.000000 0.853310
1.000000 1.000000 0.853310
0.853310 1.000000 0.853310
0.674419 1.000000 0.853310
0.495528 1.000000 0.853310
0.316637 1.000000 0.853310
0.137746 1.000000 0.853310
0.000000 1.000000 0.853310
0.000000 1.000000 0.853310
0.000000 1.000000 0.853310
0.000000 1.000000 0.853310
1.000000 1.000000 0.853310
1.000000 1.000000 0.853310
0.853310 1.000000 0.853310
0.674419 1.000000 0.853310
0.495528 1.000000 0.853310
0.316637 1.000000 0.853310
0.137746 1.000000 0.853310
0.000000 1.000000 0.853310
0.000000 1.000000 0.853310
0.000000 1.000000 0.853310
0.000000 1.000000 0.853310
1.000000 0.853310 0.853310
1.000000 0.853310 0.853310
0.853310 0.853310 0.853310
0.674419 0.853310 0.853310
0.495528 0.853310 0.853310
0.316637 0.853310 0.853310
0.137746 0.853310 0.853310
0.000000 0.853310 0.853310
0.000000 0.853310 0.853310
0.000000 0.853310 0.853310
0.000000 0.853310 0.853310
1.000000 0.674419 0.853310
1.000000 0.674419 0.853310
0.853310 0.674419 0.853310
0.674419 0.674419 0.853310
0.495528 0.674419 0.853310
0.316637 0.674419 0.853310
0.137746 0.674419 0.853310
0.000000 0.674419 0.853310
0.000000 0.674419 0.853310
0.000000 0.674419 0.853310
0.000000 0.674419 0.853310
1.000000 0.495528 0.853310
1.000000 0.495528 0.853310
0.853310 0.495528 0.853310
0.674419 0.495528 0.853310
0.495528 0.495528 0.853310
0.316637 0.495528 0.853310
0.137746 0.495528 0.853310
0.000000 0.495528 0.853310
0.000000 0.495528 0.853310
0.000000 0.495528 0.853310
0.000000 0.495528 0.853310
1.000000 0.316637 0.853310
1.000000 0.316637 0.853310
0.853310 0.316637 0.853310
0.674419 0.316637 0.853310
0.495528 0.316637 0.853310
0.316637 0.316637 0.853310
0.137746 0.316637 0.853310
0.000000 0.316637 0.853310
0.000000 0.316637 0.853310
0.000000 0.316637 0.853310
0.000000 0.316637 0.853310
1.000000 0.137746 0.853310
1.000000 0.137746 0.853310
0.853310 0.137746 0.853310
0.674419 0.137746 0.853310
0.495528 0.137746 0.853310
0.316637 0.137746 0.853310
0.137746 0.137746 0.853310
0.000000 0.137746 0.853310
0.000000 0.137746 0.853310
0.000000 0.137746 0.853310
0.000000 0.137746 0.853310
1.000000 0.000000 0.853310
1.000000 0.000000 0.853310
0.853310 0.000000 0.853310
0.674419 0.000000 0.853310
0.495528 0.000000 0.853310
0.316637 0.000000 0.853310
0.137746 0.000000 0.853310
0.000000 0.000000 0.853310
0.000000 0.000000 0.853310
0.000000 0.000000 0.853310
0.000000 0.000000 0.853310
1.000000 0.000000 0.853310
1.000000 0.000000 0.853310
0.853310 0.000000 0.853310
0.674419 0.000000 0.853310
0.495528 0.000000 0.853310
0.316637 0.000000 0.853310
0.137746 0.000000 0.853310
0.000000 0.000000 0.853310
0.000000 0.000000 0.853310
0.000000 0.000000 0.853310
0.000000 0.000000 0.853310
1.000000 0.000000 0.853310
1.000000 0.000000 0.853310
0.853310 0.000000 0.853310
0.674419 0.000000 0.853310
0.495528 0.000000 0.853310
0.316637 0.000000 0.853310
0.137746 0.000000 0.853310
0.000000 0.000000 0.853310
0.000000 0.000000 0.853310
0.000000 0.000000 0.853310
0.000000 0.000000 0.853310
1.000000 0.000000 0.853310
1.000000 0.000000 0.853310
0.853310 0.000000 0.853310
0.674419 0.000000 0.853310
0.495528 0.000000 0.853310
0.316637 0.000000 0.853310
0.137746 0.000000 0.853310
0.000000 0.000000 0.853310
0.000000 0.000000 0.853310
0.000000 0.000000 0.853310
0.000000 0.000000 0.853310
1.000000 1.000000 0.674419
1.000000 1.000000 0.674419
0.853310 1.000000 0.674419
0.674419 1.000000 0.674419
0.495528 1.000000 0.674419
0.316637 1.000000 0.674419
0.137746 1.000000 0.674419
0.000000 1.000000 0.674419
0.000000 1.000000 0.674419
0.000000 1.000000 0.674419
0.000000 1.000000 0.674419
1.000000 1.000000 0.674419
1.000000 1.000000 0.674419
0.853310 1.000000 0.674419
0.674419 1.000000 0.674419
0.495528 1.000000 0.674419
0.316637 1.000000 0.674419
0.137746 1.000000 0.674419
0.000000 1.000000 0.674419
0.000000 1.000000 0.674419
0.000000 1.000000 0.674419
0.000000 1.000000 0.674419
1.000000 0.853310 0.674419
1.000000 0.853310 0.674419
0.853310 0.853310 0.674419
0.674419 0.853310 0.674419
0.495528 0.853310 0.674419
0.316637 0.853310 0.674419
0.137746 0.853310 0.674419
0.000000 0.853310 0.674419
0.000000 0.853310 0.674419
0.000000 0.853310 0.674419
0.000000 0.853310 0.674419
1.000000 0.674419 0.674419
1.000000 0.674419 0.674419
0.853310 0.674419 0.674419
0.674419 0.674419 0.674419
0.495528 0.674419 0.674419
0.316637 0.674419 0.674419
0.137746 0.674419 0.674419
0.000000 0.674419 0.674419
0.000000 0.674419 0.674419
0.000000 0.674419 0.674419
0.000000 0.674419 0.674419
1.000000 0.495528 0.674419
1.000000 0.495528 0.674419
0.853310 0.495528 0.674419
0.674419 0.495528 0.674419
0.495528 0.495528 0.674419
0.316637 0.495528 0.674419
0.137746 0.495528 0.674419
0.000000 0.495528 0.674419
0.000000 0.495528 0.674419
0.000000 0.495528 0.674419
0.000000 0.495528 0.674419
1.000000 0.316637 0.674419
1.000000 0.316637 0.674419
0.853310 0.316637 0.674419
0.674419 0.316637 0.674419
0.495528 0.316637 0.674419
0.316637 0.316637 0.674419
0.137746 0.316637 0.674419
0.000000 0.316637 0.674419
0.000000 0.316637 0.674419
0.000000 0.316637 0.674419
0.000000 0.316637 0.674419
1.000000 0.137746 0.674419
1.000000 0.137746 0.674419
0.853310 0.137746 0.674419
0.674419 0.137746 0.674419
0.495528 0.137746 0.674419
0.316637 0.137746 0.674419
0.137746 0.137746 0.674419
0.000000 0.137746 0.674419
0.000000 0.137746 0.674419
0.000000 0.137746 0.674419
0.000000 0.137746 0.674419
1.000000 0.000000 0.674419
1.000000 0.000000 0.674419
0.853310 0.000000 0.674419
0.674419 0.000000 0.674419
0.495528 0.000000 0.674419
0.316637 0.000000 0.674419
0.137746 0.000000 0.674419
0.000000 0.000000 0.674419
0.000000 0.000000 0.674419
0.000000 0.000000 0.674419
0.000000 0.000000 0.674419
1.000000 0.000000 0.674419
1.000000 0.000000 0.674419
0.853310 0.000000 0.674419
0.674419 0.000000 0.674419
0.495528 0.000000 0.674419
0.316637 0.000000 0.674419
0.137746 0.000000 0.674419
0.000000 0.000000 0.674419
0.000000 0.000000 0.674419
0.000000 0.000000 0.674419
0.000000 0.000000 0.674419
1.000000 0.000000 0.674419
1.000000 0.000000 0.674419
0.853310 0.000000 0.674419
0.674419 0.000000 0.674419
0.495528 0.000000 0.674419
0.316637 0.000000 0.674419
0.137746 0.000000 0.674419
0.000000 0.000000 0.674419
0.000000 0.000000 0.674419
0.000000 0.000000 0.674419
0.000000 0.000000 0.674419
1.000000 0.000000 0.674419
1.000000 0.000000 0.674419
0.853310 0.000000 0.674419
0.674419 0.000000 0.674419
0.495528 0.000000 0.674419
0.316637 0.000000 0.674419
0.137746 0.000000 0.674419
0.000000 0.000000 0.674419
0.000000 0.000000 0.674419
0.000000 0.000000 0.674419
0.000000 0.000000 0.674419
1.000000 1.000000 0.495528
1.000000 1.000000 0.495528
0.853310 1.000000 0.495528
0.674419 1.000000 0.495528
0.495528 1.000000 0.495528
0.316637 1.000000 0.495528
0.137746 1.000000 0.495528
0.000000 1.000000 0.495528
0.000000 1.000000 0.495528
0.000000 1.000000 0.495528
0.000000 1.000000 0.495528
1.000000 1.000000 0.495528
1.000000 1.000000 0.495528
0.853310 1.000000 0.495528
0.674419 1.000000 0.495528
0.495528 1.000000 0.495528
0.316637 1.000000 0.495528
0.137746 1.000000 0.495528
0.000000 1.000000 0.495528
0.000000 1.000000 0.495528
0.000000 1.000000 0.495528
0.000000 1.000000 0.495528
1.000000 0.853310 0.495528
1.000000 0.853310 0.495528
0.853310 0.853310 0.495528
0.674419 0.853310 0.495528
0.495528 0.853310 0.495528
0.316637 0.853310 0.495528
0.137746 0.853310 0.495528
0.000000 0.853310 0.495528
0.000000 0.853310 0.495528
0.000000 0.853310 0.495528
0.000000 0.853310 0.495528
1.000000 0.674419 0.495528
1.000000 0.674419 0.495528
0.853310 0.674419 0.495528
0.674419 0.674419 0.495528
0.495528 0.674419 0.495528
0.316637 0.674419 0.495528
0.137746 0.674419 0.495528
0.000000 0.674419 0.495528
0.000000 0.674419 0.495528
0.000000 0.674419 0.495528
0.000000 0.674419 0.495528
1.000000 0.495528 0.495528
1.000000 0.495528 0.495528
0.853310 0.495528 0.495528
0.674419 0.495528 0.495528
0.495528 0.495528 0.495528
0.316637 0.495528 0.495528
0.137746 0.495528 0.495528
0.000000 0.495528 0.495528
0.000000 0.495528 0.495528
0.000000 0.495528 0.495528
0.000000 0.495528 0.495528
1.000000 0.316637 0.495528
1.000000 0.316637 0.495528
0.853310 0.316637 0.495528
0.674419 0.316637 0.495528
0.495528 0.316637 0.495528
0.316637 0.316637 0.495528
0.137746 0.316637 0.495528
0.000000 0.316637 0.495528
0.000000 0.316637 0.495528
0.000000 0.316637 0.495528
0.000000 0.316637 0.495528
1.000000 0.137746 0.495528
1.000000 0.137746 0.495528
0.853310 0.137746 0.495528
0.674419 0.137746 0.495528
0.495528 0.137746 0.495528
0.316637 0.137746 0.495528
0.137746 0.137746 0.495528
0.000000 0.137746 0.495528
0.000000 0.137746 0.495528
0.000000 0.137746 0.495528
0.000000 0.137746 0.495528
1.000000 0.000000 0.495528
1.000000 0.000000 0.495528
0.853310 0.000000 0.495528
0.674419 0.000000 0.495528
0.495528 0.000000 0.495528
0.316637 0.000000 0.495528
0.137746 0.000000 0.495528
0.000000 0.000000 0.495528
0.000000 0.000000 0.495528
0.000000 0.000000 0.495528
0.000000 0.000000 0.495528
1.000000 0.000000 0.495528
1.000000 0.000000 0.495528
0.853310 0.000000 0.495528
0.674419 0.000000 0.495528
0.495528 0.000000 0.495528
0.316637 0.000000 0.495528
0.137746 0.000000 0.495528
0.000000 0.000000 0.495528
0.000000 0.000000 0.495528
0.000000 0.000000 0.495528
0.000000 0.000000 0.495528
1.000000 0.000000 0.495528
1.000000 0.000000 0.495528
0.853310 0.000000 0.495528
0.674419 0.000000 0.495528
0.495528 0.000000 0.495528
0.316637 0.000000 0.495528
0.137746 0.000000 0.495528
0.000000 0.000000 0.495528
0.000000 0.000000 0.495528
0.000000 0.000000 0.495528
0.000000 0.000000 0.495528
1.000000 0.000000 0.495528
1.000000 0.000000 0.495528
0.853310 0.000000 0.495528
0.674419 0.000000 0.495528
0.495528 0.000000 0.495528
0.316637 0.000000 0.495528
0.137746 0.000000 0.495528
0.000000 0.000000 0.495528
0.000000 0.000000 0.495528
0.000000 0.000000 0.495528
0.000000 0.000000 0.495528
1.000000 1.000000 0.316637
1.000000 1.000000 0.316637
0.853310 1.000000 0.316637
0.674419 1.000000 0.316637
0.495528 1.000000 0.316637
0.316637 1.000000 0.316637
0.137746 1.000000 0.316637
0.000000 1.000000 0.316637
0.000000 1.000000 0.316637
0.000000 1.000000 0.316637
0.000000 1.000000 0.316637
1.000000 1.000000 0.316637
1.000000 1.000000 0.316637
0.853310 1.000000 0.316637
0.674419 1.000000 0.316637
0.495528 1.000000 0.316637
0.316637 1.000000 0.316637
0.137746 1.000000 0.316637
0.000000 1.000000 0.316637
0.000000 1.000000 0.316637
0.000000 1.000000 0.316637
0.000000 1.000000 0.316637
1.000000 0.853310 0.316637
1.000000 0.853310 0.316637
0.853310 0.853310 0.316637
0.674419 0.853310 0.316637
0.495528 0.853310 0.316637
0.316637 0.853310 0.316637
0.137746 0.853310 0.316637
0.000000 0.853310 0.316637
0.000000 0.853310 0.316637
0.000000 0.853310 0.316637
0.000000 0.853310 0.316637
1.000000 0.674419 0.316637
1.000000 0.674419 0.316637
0.853310 0.674419 0.316637
0.674419 0.674419 0.316637
0.495528 0.674419 0.316637
0.316637 0.674419 0.316637
0.137746 0.674419 0.316637
0.000000 0.674419 0.316637
0.000000 0.674419 0.316637
0.000000 0.674419 0.316637
0.000000 0.674419 0.316637
1.000000 0.495528 0.316637
1.000000 0.495528 0.316637
0.853310 0.495528 0.316637
0.674419 0.495528 0.316637
0.495528 0.495528 0.316637
0.316637 0.495528 0.316637
0.137746 0.495528 0.316637
0.000000 0.495528 0.316637
0.000000 0.495528 0.316637
0.000000 0.495528 0.316637
0.000000 0.495528 0.316637
1.000000 0.316637 0.316637
1.000000 0.316637 0.316637
0.853310 0.316637 0.316637
0.674419 0.316637 0.316637
0.495528 0.316637 0.316637
0.316637 0.316637 0.316637
0.137746 0.316637 0.316637
0.000000 0.316637 0.316637
0.000000 0.316637 0.316637
0.000000 0.316637 0.316637
0.000000 0.316637 0.316637
1.000000 0.137746 0.316637
1.000000 0.137746 0.316637
0.853310 0.137746 0.316637
0.674419 0.137746 0.316637
0.495528 0.137746 0.316637
0.316637 0.137746 0.316637
0.137746 0.137746 0.316637
0.000000 0.137746 0.316637
0.000000 0.137746 0.316637
0.000000 0.137746 0.316637
0.000000 0.137746 0.316637
1.000000 0.000000 0.316637
1.000000 0.000000 0.316637
0.853310 0.000000 0.316637
0.674419 0.000000 0.316637
0.495528 0.000000 0.316637
0.316637 0.000000 0.316637
0.137746 0.000000 0.316637
0.000000 0.000000 0.316637
0.000000 0.000000 0.316637
0.000000 0.000000 0.316637
0.000000 0.000000 0.316637
1.000000 0.000000 0.316637
1.000000 0.000000 0.316637
0.853310 0.000000 0.316637
0.674419 0.000000 0.316637
0.495528 0.000000 0.316637
0.316637 0.000000 0.316637
0.137746 0.000000 0.316637
0.000000 0.000000 0.316637
0.000000 0.000000 0.316637
0.000000 0.000000 0.316637
0.000000 0.000000 0.316637
1.000000 0.000000 0.316637
1.000000 0.000000 0.316637
0.853310 0.000000 0.316637
0.674419 0.000000 0.316637
0.495528 0.000000 0.316637
0.316637 0.000000 0.316637
0.137746 0.000000 0.316637
0.000000 0.000000 0.316637
0.000000 0.000000 0.316637
0.000000 0.000000 0.316637
0.000000 0.000000 0.316637
1.000000 0.000000 0.316637
1.000000 0.000000 0.316637
0.853310 0.000000 0.316637
0.674419 0.000000 0.316637
0.495528 0.000000 0.316637
0.316637 0.000000 0.316637
0.137746 0.000000 0.316637
0.000000 0.000000 0.316637
0.000000 0.000000 0.316637
0.000000 0.000000 0.316637
0.000000 0.000000 0.316637
1.000000 1.000000 0.137746
1.000000 1.000000 0.137746
0.853310 1.000000 0.137746
0.674419 1.000000 0.137746
0.495528 1.000000 0.137746
0.316637 1.000000 0.137746
0.137746 1.000000 0.137746
0.000000 1.000000 0.137746
0.000000 1.000000 0.137746
0.000000 1.000000 0.137746
0.000000 1.000000 0.137746
1.000000 1.000000 0.137746
1.000000 1.000000 0.137746
0.853310 1.000000 0.137746
0.674419 1.000000 0.137746
0.495528 1.000000 0.137746
0.316637 1.000000 0.137746
0.137746 1.000000 0.137746
0.000000 1.000000 0.137746
0.000000 1.000000 0.137746
0.000000 1.000000 0.137746
0.000000 1.000000 0.137746
1.000000 0.853310 0.137746
1.000000 0.853310 0.137746
0.853310 0.853310 0.137746
0.674419 0.853310 0.137746
0.495528 0.853310 0.137746
0.316637 0.853310 0.137746
0.137746 0.853310 0.137746
0.000000 0.853310 0.137746
0.000000 0.853310 0.137746
0.000000 0.853310 0.137746
0.000000 0.853310 0.137746
1.000000 0.674419 0.137746
1.000000 0.674419 0.137746
0.853310 0.674419 0.137746
0.674419 0.674419 0.137746
0.495528 0.674419 0.137746
0.316637 0.674419 0.137746
0.137746 0.674419 0.137746
0.000000 0.674419 0.137746
0.000000 0.674419 0.137746
0.000000 0.674419 0.137746
0.000000 0.674419 0.137746
1.000000 0.495528 0.137746
1.000000 0.495528 0.137746
0.853310 0.495528 0.137746
0.674419 0.495528 0.137746
0.495528 0.495528 0.137746
0.316637 0.495528 0.137746
0.137746 0.495528 0.137746
0.000000 0.495528 0.137746
0.000000 0.495528 0.137746
0.000000 0.495528 0.137746
0.000000 0.495528 0.137746
1.000000 0.316637 0.137746
1.000000 0.316637 0.137746
0.853310 0.316637 0.137746
0.674419 0.316637 0.137746
0.495528 0.316637 0.137746
0.316637 0.316637 0.137746
0.137746 0.316637 0.137746
0.000000 0.316637 0.137746
0.000000 0.316637 0.137746
0.000000 0.316637 0.137746
0.000000 0.316637 0.137746
1.000000 0.137746 0.137746
1.000000 0.137746 0.137746
0.853310 0.137746 0.137746
0.674419 0.137746 0.137746
0.495528 0.137746 0.137746
0.316637 0.137746 0.137746
0.137746 0.137746 0.137746
0.000000 0.137746 0.137746
0.000000 0.137746 0.137746
0.000000 0.137746 0.137746
0.000000 0.137746 0.137746
1.000000 0.000000 0.137746
1.000000 0.000000 0.137746
0.853310 0.000000 0.137746
0.674419 0.000000 0.137746
0.495528 0.000000 0.137746
0.316637 0.000000 0.137746
0.137746 0.000000 0.137746
0.000000 0.000000 0.137746
0.000000 0.000000 0.137746
0.000000 0.000000 0.137746
0.000000 0.000000 0.137746
1.000000 0.000000 0.137746
1.000000 0.000000 0.137746
0.853310 0.000000 0.137746
0.674419 0.000000 0.137746
0.495528 0.000000 0.137746
0.316637 0.000000 0.137746
0.137746 0.000000 0.137746
0.000000 0.000000 0.137746
0.000000 0.000000 0.137746
0.000000 0.000000 0.137746
0.000000 0.000000 0.137746
1.000000 0.000000 0.137746
1.000000 0.000000 0.137746
0.853310 0.000000 0.137746
0.674419 0.000000 0.137746
0.495528 0.000000 0.137746
0.316637 0.000000 0.137746
0.137746 0.000000 0.137746
0.000000 0.000000 0.137746
0.000000 0.000000 0.137746
0.000000 0.000000 0.137746
0.000000 0.000000 0.137746
1.000000 0.000000 0.137746
1.000000 0.000000 0.137746
0.853310 0.000000 0.137746
0.674419 0.000000 0.137746
0.495528 0.000000 0.137746
0.316637 0.000000 0.137746
0.137746 0.000000 0.137746
0.000000 0.000000 0.137746
0.000000 0.000000 0.137746
0.000000 0.000000 0.137746
0.000000 0.000000 0.137746
1.000000 1.000000 0.000000
1.000000 1.000000 0.000000
0.853310 1.000000 0.000000
0.674419 1.000000 0.000000
0.495528 1.000000 0.000000
0.316637 1.000000 0.000000
0.137746 1.000000 0.000000
0.000000 1.000000 0.000000
0.000000 1.000000 0.000000
0.000000 1.000000 0.000000
0.000000 1.000000 0.000000
1.000000 1.000000 0.000000
1.000000 1.000000 0.000000
0.853310 1.000000 0.000000
0.674419 1.000000 0.000000
0.495528 1.000000 0.000000
0.316637 1.000000 0.000000
0.137746 1.000000 0.000000
0.000000 1.000000 0.000000
0.000000 1.000000 0.000000
0.000000 1.000000 0.000000
0.000000 1.000000 0.000000
1.000000 0.853310 0.000000
1.000000 0.853310 0.000000
0.853310 0.853310 0.000000
0.674419 0.853310 0.000000
0.495528 0.853310 0.000000
0.316637 0.853310 0.000000
0.137746 0.853310 0.000000
0.000000 0.853310 0.000000
0.000000 0.853310 0.000000
0.000000 0.853310 0.000000
0.000000 0.853310 0.000000
1.000000 0.674419 0.000000
1.000000 0.674419 0.000000
0.853310 0.674419 0.000000
0.674419 0.674419 0.000000
0.495528 0.674419 0.000000
0.316637 0.674419 0.000000
0.137746 0.674419 0.000000
