looks/invertbrightness_pq.cube
TITLE "Generated by Foundry::LUT"
LUT_3D_SIZE 6
1.000000 1.000000 1.000000
1.000000 0.906954 0.909745
1.000000 0.611111 0.496536
1.000000 0.281951 0.162104
1.000000 0.008906 0.002244
1.000000 0.008906 0.002244
0.746746 0.918942 0.746177
0.874363 0.863697 0.702367
1.000000 0.615776 0.439590
1.000000 0.297429 0.133945
0.964122 0.086344 0.000000
0.964122 0.086344 0.000000
0.244423 0.648310 0.183583
0.300713 0.636455 0.173112
0.530798 0.528843 0.046341
0.640657 0.324725 0.000000
0.646332 0.216044 0.000000
0.646332 0.216044 0.000000
0.000000 0.333036 0.000000
0.000000 0.328769 0.000000
0.000000 0.284252 0.000000
0.187711 0.180102 0.000000
0.225735 0.123433 0.000000
0.225735 0.123433 0.000000
0.000000 0.206917 0.000000
0.000000 0.203928 0.000000
0.000000 0.174150 0.000000
0.093561 0.107589 0.000000
0.145058 0.060662 0.000000
0.145058 0.060662 0.000000
0.000000 0.206917 0.000000
0.000000 0.203928 0.000000
0.000000 0.174150 0.000000
0.093561 0.107589 0.000000
0.145058 0.060662 0.000000
0.145058 0.060662 0.000000
0.969316 0.967716 1.000000
1.000000 0.878451 1.000000
1.000000 0.608631 0.639947
1.000000 0.279112 0.275366
0.998536 0.000000 0.145689
0.998536 0.000000 0.145689
0.744522 0.897394 0.893706
0.850127 0.850127 0.850127
1.000000 0.612709 0.574754
1.000000 0.294413 0.245178
0.960749 0.077333 0.118837
0.960749 0.077333 0.118837
0.234345 0.644396 0.276705
0.292440 0.632670 0.266894
0.527068 0.525815 0.168593
0.639792 0.321960 0.000000
0.645008 0.213104 0.000000
0.645008 0.213104 0.000000
0.000000 0.331716 0.000000
0.000000 0.327450 0.000000
0.000000 0.283008 0.000000
0.183453 0.179126 0.000000
0.221995 0.122635 0.000000
0.221995 0.122635 0.000000
0.000000 0.206121 0.000000
0.000000 0.203150 0.000000
0.000000 0.173535 0.000000
0.085648 0.107167 0.000000
0.139907 0.060218 0.000000
0.139907 0.060218 0.000000
0.000000 0.206121 0.000000
0.000000 0.203150 0.000000
0.000000 0.173535 0.000000
0.085648 0.107167 0.000000
0.139907 0.060218 0.000000
0.139907 0.060218 0.000000
0.956808 0.756093 1.000000
0.967242 0.734038 1.000000
1.000000 0.557951 0.995301
0.992742 0.238309 0.613137
0.960109 0.000000 0.473167
0.960109 0.000000 0.473167
0.799713 0.761381 1.000000
0.828233 0.738802 1.000000
0.943161 0.562639 0.928519
0.951491 0.255574 0.578920
0.925791 0.000000 0.446198
0.925791 0.000000 0.446198
0.194807 0.603964 0.602708
0.254239 0.593435 0.592520
0.494350 0.494350 0.494350
0.623843 0.293995 0.303021
0.634479 0.179394 0.215734
0.634479 0.179394 0.215734
0.000000 0.316722 0.007323
0.000000 0.312501 0.001854
0.000000 0.268744 0.000000
0.157328 0.167157 0.000000
0.197089 0.111867 0.000000
0.197089 0.111867 0.000000
0.000000 0.196794 0.000000
0.000000 0.193970 0.000000
0.000000 0.165881 0.000000
0.007187 0.100516 0.000000
0.098079 0.052070 0.000000
0.098079 0.052070 0.000000
0.000000 0.196794 0.000000
0.000000 0.193970 0.000000
0.000000 0.165881 0.000000
0.007187 0.100516 0.000000
0.098079 0.052070 0.000000
0.098079 0.052070 0.000000
0.830259 0.579883 1.000000
0.836150 0.566708 1.000000
0.875755 0.438552 1.000000
0.888337 0.090777 0.886793
0.874460 0.000000 0.748504
0.874460 0.000000 0.748504
0.738131 0.587703 1.000000
0.748992 0.574342 1.000000
0.817823 0.447122 1.000000
0.853105 0.131230 0.853616
0.844552 0.000000 0.721086
0.844552 0.000000 0.721086
0.068296 0.517174 0.876603
0.155309 0.508448 0.866745
0.414183 0.422405 0.770128
0.565102 0.226899 0.573464
0.586840 0.081020 0.480079
0.586840 0.081020 0.480079
0.000000 0.280797 0.295035
0.000000 0.276613 0.290210
0.000000 0.233484 0.241037
0.134092 0.134093 0.134092
0.170598 0.078653 0.082738
0.170598 0.078653 0.082738
0.000000 0.172653 0.089225
0.000000 0.170136 0.085885
0.000000 0.145067 0.043342
0.000000 0.076900 0.000000
0.024974 0.019097 0.000000
0.024974 0.019097 0.000000
0.000000 0.172653 0.089225
0.000000 0.170136 0.085885
0.000000 0.145067 0.043342
0.000000 0.076900 0.000000
0.024974 0.019097 0.000000
0.024974 0.019097 0.000000
0.762585 0.506286 1.000000
0.768187 0.494657 1.000000
0.809067 0.376636 1.000000
0.834780 0.000000 0.973632
0.827867 0.000000 0.839139
0.827867 0.000000 0.839139
0.683312 0.515564 1.000000
0.692439 0.503910 1.000000
0.756071 0.387703 1.000000
0.801652 0.000000 0.941621
0.799554 0.000000 0.812181
0.799554 0.000000 0.812181
0.000000 0.473898 0.963957
0.000000 0.465800 0.954441
0.359264 0.384465 0.860468
0.525966 0.187062 0.665648
0.553320 0.000000 0.571579
0.553320 0.000000 0.571579
0.000000 0.262055 0.381839
0.000000 0.257928 0.376875
0.000000 0.215402 0.326246
0.103289 0.116312 0.215595
0.155728 0.057781 0.162253
0.155728 0.057781 0.162253
0.000000 0.160119 0.170940
0.000000 0.157697 0.167546
0.000000 0.132816 0.133633
0.000000 0.059977 0.058831
0.000000 0.000000 0.000000
0.000000 0.000000 0.000000
0.000000 0.160119 0.170940
0.000000 0.157697 0.167546
0.000000 0.132816 0.133633
0.000000 0.059977 0.058831
0.000000 0.000000 0.000000
0.000000 0.000000 0.000000
0.762585 0.506286 1.000000
0.768187 0.494657 1.000000
0.809067 0.376636 1.000000
0.834780 0.000000 0.973632
0.827867 0.000000 0.839139
0.827867 0.000000 0.839139
0.683312 0.515564 1.000000
0.692439 0.503910 1.000000
0.756071 0.387703 1.000000
0.801652 0.000000 0.941621
0.799554 0.000000 0.812181
0.799554 0.000000 0.812181
0.000000 0.473898 0.963957
0.000000 0.465800 0.954441
0.359264 0.384465 0.860468
0.525966 0.187062 0.665648
0.553320 0.000000 0.571579
0.553320 0.000000 0.571579
0.000000 0.262055 0.381839
0.000000 0.257928 0.376875
0.000000 0.215402 0.326246
0.103289 0.116312 0.215595
0.155728 0.057781 0.162253
0.155728 0.057781 0.162253
0.000000 0.160119 0.170940
0.000000 0.157697 0.167546
0.000000 0.132816 0.133633
0.000000 0.059977 0.058831
0.000000 0.000000 0.000000
0.000000 0.000000 0.000000
0.000000 0.160119 0.170940
0.000000 0.157697 0.167546
0.000000 0.132816 0.133633
0.000000 0.059977 0.058831
0.000000 0.000000 0.000000
0.000000 0.000000 0.000000
