looks/invertbrightness_g22.cube
TITLE "Generated by Foundry::LUT"
LUT_3D_SIZE 11
1.000000 1.000000 1.000000
1.000000 0.949835 0.950590
1.000000 0.850301 0.848960
1.000000 0.766414 0.719730
1.000000 0.692346 0.607205
1.000000 0.614679 0.501135
1.000000 0.532794 0.401341
1.000000 0.445571 0.307895
1.000000 0.349750 0.218907
1.000000 0.235010 0.125806
1.000000 0.008906 0.002244
0.843722 0.946433 0.846231
0.905732 0.908133 0.807066
0.998540 0.840339 0.737290
1.000000 0.769566 0.653021
1.000000 0.695678 0.561736
1.000000 0.618181 0.468871
1.000000 0.536895 0.377937
1.000000 0.450727 0.290648
1.000000 0.356667 0.203893
1.000000 0.245828 0.110406
0.981848 0.058543 0.000000
0.684261 0.884835 0.649084
0.748848 0.861447 0.632834
0.837403 0.817661 0.598096
0.914540 0.758989 0.545280
0.966939 0.691531 0.479698
0.995996 0.618354 0.406902
1.000000 0.540559 0.331111
1.000000 0.457813 0.252367
0.988061 0.368041 0.168860
0.965405 0.264782 0.070795
0.936369 0.116640 0.000000
0.559935 0.813468 0.488629
0.602063 0.799281 0.479210
0.672112 0.769688 0.458339
0.747475 0.725304 0.424506
0.810493 0.669703 0.378661
0.855421 0.605920 0.322801
0.882580 0.535824 0.258812
0.894364 0.460057 0.187236
0.893534 0.377731 0.103720
0.882573 0.284863 0.000000
0.863201 0.165225 0.000000
0.417140 0.734827 0.343855
0.449702 0.725491 0.337227
0.508238 0.705080 0.322222
0.578241 0.672500 0.296959
0.644132 0.629128 0.261136
0.697917 0.576833 0.214900
0.737087 0.517230 0.157620
0.761963 0.451281 0.083133
0.774002 0.378854 0.000000
0.774776 0.297632 0.000000
0.766125 0.199022 0.000000
0.252894 0.652063 0.191026
0.284777 0.645611 0.185471
0.341483 0.631184 0.172655
0.410057 0.607355 0.150165
0.477215 0.574370 0.115523
0.535716 0.533084 0.061228
0.582460 0.484474 0.000000
0.616636 0.429246 0.000000
0.638591 0.367476 0.000000
0.649759 0.297875 0.000000
0.651734 0.215708 0.000000
0.000000 0.567735 0.000000
0.000000 0.563139 0.000000
0.133600 0.552734 0.000000
0.227915 0.535192 0.000000
0.305942 0.510258 0.000000
0.371161 0.478131 0.000000
0.424054 0.439226 0.000000
0.465375 0.393896 0.000000
0.495947 0.342173 0.000000
0.516399 0.283375 0.000000
0.527469 0.214894 0.000000
0.000000 0.481966 0.000000
0.000000 0.478586 0.000000
0.000000 0.470878 0.000000
0.000000 0.457710 0.000000
0.083274 0.438657 0.000000
0.194482 0.413582 0.000000
0.264138 0.382546 0.000000
0.315942 0.345663 0.000000
0.354916 0.302930 0.000000
0.382797 0.253640 0.000000
0.399456 0.195016 0.000000
0.000000 0.392619 0.000000
0.000000 0.390063 0.000000
0.000000 0.384206 0.000000
0.000000 0.374124 0.000000
0.000000 0.359373 0.000000
0.000000 0.339601 0.000000
0.101007 0.314310 0.000000
0.176406 0.283326 0.000000
0.224307 0.246597 0.000000
0.257581 0.204038 0.000000
0.280310 0.154974 0.000000
0.000000 0.293774 0.000000
0.000000 0.291632 0.000000
0.000000 0.286720 0.000000
0.000000 0.278250 0.000000
0.000000 0.265828 0.000000
0.000000 0.249223 0.000000
0.000000 0.228348 0.000000
0.094081 0.203241 0.000000
0.144337 0.174013 0.000000
0.178894 0.140704 0.000000
0.204367 0.102817 0.000000
0.000000 0.206917 0.000000
0.000000 0.205324 0.000000
0.000000 0.201692 0.000000
0.000000 0.195484 0.000000
0.000000 0.186503 0.000000
0.000000 0.174739 0.000000
0.000000 0.160330 0.000000
0.000000 0.143524 0.000000
0.060695 0.123071 0.000000
0.109658 0.096847 0.000000
0.145058 0.060662 0.000000
0.980689 0.983380 1.000000
1.000000 0.933026 1.000000
1.000000 0.840919 0.935656
1.000000 0.763033 0.810629
1.000000 0.690589 0.698784
1.000000 0.613604 0.591008
1.000000 0.531976 0.487334
1.000000 0.444716 0.387665
1.000000 0.348617 0.291522
1.000000 0.233284 0.197516
1.000000 0.001344 0.100278
0.829162 0.933301 0.933650
0.895428 0.895428 0.895428
0.979347 0.833875 0.828014
1.000000 0.766214 0.744507
1.000000 0.693705 0.652217
1.000000 0.616896 0.556653
1.000000 0.535878 0.461022
1.000000 0.449687 0.366796
1.000000 0.355412 0.274317
1.000000 0.244068 0.182428
0.979914 0.052228 0.084346
0.674513 0.876890 0.739958
0.734822 0.854927 0.723311
0.820551 0.813011 0.687725
0.897954 0.755861 0.633312
0.952481 0.689390 0.564996
0.984387 0.616764 0.487927
0.997690 0.539201 0.406031
0.996436 0.456492 0.321785
0.983927 0.366608 0.236175
0.962759 0.262986 0.147684
0.934798 0.112960 0.041479
0.546252 0.809113 0.568335
0.588381 0.795290 0.558206
0.658952 0.766309 0.535718
0.735674 0.722574 0.499167
0.800580 0.667502 0.449923
0.847543 0.604086 0.390500
0.876620 0.534209 0.323512
0.890074 0.458533 0.250869
0.890616 0.376173 0.172754
0.880726 0.283078 0.083030
0.862143 0.162523 0.000000
0.407779 0.731915 0.405978
0.440825 0.722693 0.399053
0.500193 0.702499 0.383428
0.571243 0.670196 0.357280
0.638289 0.627095 0.320578
0.693256 0.575024 0.274062
0.733554 0.515579 0.218559
0.759442 0.449715 0.153679
0.772335 0.377286 0.072122
0.773788 0.295930 0.000000
0.765316 0.196977 0.000000
0.246946 0.649961 0.246907
0.279485 0.643548 0.241581
0.337084 0.629202 0.229410
0.406499 0.605487 0.208522
0.474396 0.572629 0.177900
0.533568 0.531460 0.136081
0.580924 0.482943 0.077693
0.615640 0.427767 0.000000
0.638049 0.366000 0.000000
0.649162 0.296408 0.000000
0.650973 0.214148 0.000000
0.000000 0.566152 0.052306
0.000000 0.561570 0.043985
0.132684 0.551194 0.023561
0.227421 0.533696 0.000000
0.305679 0.508815 0.000000
0.371094 0.476739 0.000000
0.424167 0.437878 0.000000
0.465237 0.392617 0.000000
0.495504 0.340962 0.000000
0.515739 0.282204 0.000000
0.526650 0.213697 0.000000
0.000000 0.480745 0.000000
0.000000 0.477373 0.000000
0.000000 0.469681 0.000000
0.000000 0.456541 0.000000
0.085080 0.437525 0.000000
0.194692 0.412496 0.000000
0.263847 0.381511 0.000000
0.315360 0.344678 0.000000
0.354133 0.301993 0.000000
0.381849 0.252724 0.000000
0.398361 0.194089 0.000000
0.000000 0.391769 0.000000
0.000000 0.389218 0.000000
0.000000 0.383367 0.000000
0.000000 0.373298 0.000000
0.000000 0.358565 0.000000
0.000000 0.338805 0.000000
0.098344 0.313531 0.000000
0.174546 0.282571 0.000000
0.222624 0.245877 0.000000
0.255949 0.203360 0.000000
0.278690 0.154343 0.000000
0.000000 0.293141 0.000000
0.000000 0.291002 0.000000
0.000000 0.286098 0.000000
0.000000 0.277641 0.000000
0.000000 0.265238 0.000000
0.000000 0.248660 0.000000
0.000000 0.227819 0.000000
0.089680 0.202756 0.000000
0.141282 0.173582 0.000000
0.176358 0.140343 0.000000
0.202113 0.102543 0.000000
0.000000 0.206497 0.000000
0.000000 0.204909 0.000000
0.000000 0.201288 0.000000
0.000000 0.195097 0.000000
0.000000 0.186144 0.000000
0.000000 0.174415 0.000000
0.000000 0.160050 0.000000
0.000000 0.143289 0.000000
0.054607 0.122847 0.000000
0.105992 0.096629 0.000000
0.142277 0.060438 0.000000
0.971160 0.941159 1.000000
1.000000 0.893025 1.000000
1.000000 0.821309 1.000000
1.000000 0.753772 0.931559
1.000000 0.684579 0.818308
1.000000 0.609210 0.705904
1.000000 0.528415 0.596174
1.000000 0.441469 0.490095
1.000000 0.345218 0.388206
1.000000 0.228846 0.290682
0.995614 0.000000 0.197062
0.833504 0.900898 1.000000
0.885982 0.869928 1.000000
0.953747 0.818808 0.946729
1.000000 0.756920 0.863302
1.000000 0.687361 0.768184
1.000000 0.612217 0.668027
1.000000 0.532088 0.566799
1.000000 0.446266 0.466791
1.000000 0.351902 0.369319
1.000000 0.239672 0.274992
0.975494 0.035494 0.183450
0.673603 0.859143 0.855201
0.724272 0.839690 0.838047
0.801315 0.801315 0.801315
0.875719 0.747301 0.744830
0.931374 0.683054 0.673382
0.966252 0.611857 0.592263
0.983053 0.535140 0.505805
0.985191 0.452836 0.417118
0.975692 0.362950 0.328241
0.957047 0.258686 0.240216
0.931086 0.104222 0.152427
0.535232 0.798523 0.672247
0.575121 0.785455 0.661602
0.643299 0.757786 0.637987
0.719264 0.715528 0.599624
0.785162 0.661746 0.547951
0.834169 0.599304 0.485671
0.865711 0.530082 0.415786
0.881646 0.454765 0.340952
0.884459 0.372459 0.263100
0.876510 0.278951 0.182895
0.859477 0.156320 0.097286
0.395697 0.724978 0.497555
0.428716 0.716009 0.490331
0.488230 0.696306 0.474061
0.559870 0.664644 0.446923
0.628031 0.622194 0.409042
0.684498 0.570686 0.361493
0.726481 0.511665 0.305832
0.754056 0.446059 0.243548
0.768502 0.373684 0.175232
0.771285 0.292067 0.097964
0.763798 0.192068 0.000000
0.236925 0.645074 0.331253
0.270385 0.638753 0.325970
0.329200 0.624594 0.313966
0.399762 0.601148 0.293608
0.468737 0.568593 0.264453
0.528983 0.527714 0.226530
0.577408 0.479428 0.179829
0.613146 0.424398 0.123009
0.636477 0.362655 0.046021
0.648204 0.292935 0.000000
0.649670 0.210389 0.000000
0.000000 0.562535 0.164373
0.000000 0.557984 0.159820
0.129879 0.547677 0.149299
0.225740 0.530283 0.130789
0.304543 0.505526 0.102255
0.370404 0.473576 0.058401
0.423905 0.434820 0.000000
0.465281 0.389637 0.000000
0.495030 0.338105 0.000000
0.514694 0.279421 0.000000
0.525184 0.210829 0.000000
0.000000 0.477954 0.000000
0.000000 0.474592 0.000000
0.000000 0.466924 0.000000
0.000000 0.453828 0.000000
0.091954 0.434881 0.000000
0.196486 0.409955 0.000000
0.264081 0.379082 0.000000
0.314716 0.342362 0.000000
0.352903 0.299778 0.000000
0.380140 0.250538 0.000000
0.396254 0.191865 0.000000
0.000000 0.389780 0.000000
0.000000 0.387233 0.000000
0.000000 0.381402 0.000000
0.000000 0.371360 0.000000
0.000000 0.356669 0.000000
0.000000 0.336933 0.000000
0.093800 0.311698 0.000000
0.171156 0.280784 0.000000
0.219404 0.244166 0.000000
0.252719 0.201741 0.000000
0.275407 0.152816 0.000000
0.000000 0.291653 0.000000
0.000000 0.289523 0.000000
0.000000 0.284634 0.000000
0.000000 0.276207 0.000000
0.000000 0.263846 0.000000
0.000000 0.247327 0.000000
0.000000 0.226562 0.000000
0.080200 0.201596 0.000000
0.134842 0.172542 0.000000
0.171009 0.139452 0.000000
0.197340 0.101843 0.000000
0.000000 0.205501 0.000000
0.000000 0.203924 0.000000
0.000000 0.200325 0.000000
0.000000 0.194175 0.000000
0.000000 0.185283 0.000000
0.000000 0.173632 0.000000
0.000000 0.159365 0.000000
0.000000 0.142705 0.000000
0.040053 0.122277 0.000000
0.097896 0.096069 0.000000
0.136226 0.059825 0.000000
1.000000 0.871644 1.000000
1.000000 0.840564 1.000000
1.000000 0.792214 1.000000
1.000000 0.736193 1.000000
1.000000 0.671773 0.925425
1.000000 0.599390 0.813747
1.000000 0.520419 0.702570
1.000000 0.434437 0.593722
1.000000 0.338295 0.488386
1.000000 0.220350 0.387402
0.987581 0.000000 0.291353
0.854151 0.856356 1.000000
0.885881 0.834523 1.000000
0.935153 0.794131 1.000000
0.982897 0.739427 0.968765
1.000000 0.674488 0.875417
1.000000 0.602303 0.775025
1.000000 0.524000 0.672034
1.000000 0.439164 0.569243
1.000000 0.344973 0.468484
0.997302 0.231428 0.371009
0.967930 0.004628 0.277630
0.687606 0.831478 0.960198
0.725766 0.814935 0.943387
0.788648 0.781099 0.907205
0.854849 0.731579 0.851064
0.908273 0.670861 0.779283
0.944371 0.602159 0.696938
0.963976 0.527082 0.608417
0.969469 0.445718 0.517077
0.963339 0.356073 0.425363
0.947804 0.250889 0.335026
0.924529 0.087705 0.247100
0.534394 0.780515 0.776666
0.569365 0.768507 0.765854
0.631157 0.742760 0.741853
0.702790 0.702790 0.702790
0.767342 0.651128 0.650009
0.817179 0.590392 0.586172
0.850763 0.522406 0.514347
0.869266 0.447854 0.437416
0.874746 0.365798 0.357802
0.869299 0.271712 0.277314
0.854449 0.145386 0.196825
0.387080 0.712893 0.596602
0.418739 0.704319 0.589179
0.476424 0.685399 0.572468
0.546881 0.654790 0.544609
0.615000 0.613450 0.505750
0.672416 0.562939 0.457053
0.715992 0.504710 0.400278
0.745480 0.439632 0.337383
0.761892 0.367436 0.270107
0.766521 0.285449 0.199539
0.760644 0.183576 0.125451
0.225668 0.636592 0.424841
0.259738 0.630423 0.419477
0.319294 0.616581 0.407313
0.390577 0.593597 0.386757
0.460396 0.561572 0.357519
0.521702 0.521211 0.319954
0.571368 0.473360 0.274818
0.608439 0.418621 0.222942
0.633090 0.356962 0.164726
0.646029 0.286988 0.098606
0.648169 0.203513 0.013755
0.000000 0.556326 0.260836
0.000000 0.551832 0.256697
0.123395 0.541645 0.247247
0.221657 0.524435 0.231069
0.301460 0.499902 0.207546
0.368080 0.468180 0.176285
0.422304 0.429623 0.136653
0.464394 0.384570 0.086237
0.494712 0.333067 0.014069
0.513839 0.274406 0.000000
0.523513 0.205590 0.000000
0.000000 0.473207 0.084896
0.000000 0.469864 0.080381
0.000000 0.462235 0.069627
0.000000 0.449201 0.049211
0.100896 0.430335 0.015616
0.200782 0.405503 0.000000
0.266287 0.374767 0.000000
0.315065 0.338228 0.000000
0.351993 0.295804 0.000000
0.378227 0.246584 0.000000
0.393534 0.187796 0.000000
0.000000 0.386245 0.000000
0.000000 0.383711 0.000000
0.000000 0.377907 0.000000
0.000000 0.367915 0.000000
0.000000 0.353290 0.000000
0.000000 0.333596 0.000000
0.089793 0.308404 0.000000
0.167399 0.277580 0.000000
0.215366 0.241076 0.000000
0.248368 0.198790 0.000000
0.270779 0.149985 0.000000
0.000000 0.288997 0.000000
0.000000 0.286875 0.000000
0.000000 0.282017 0.000000
0.000000 0.273636 0.000000
0.000000 0.261348 0.000000
0.000000 0.244924 0.000000
0.000000 0.224285 0.000000
0.065280 0.199475 0.000000
0.125154 0.170618 0.000000
0.162956 0.137760 0.000000
0.190103 0.100433 0.000000
0.000000 0.203696 0.000000
0.000000 0.202137 0.000000
0.000000 0.198575 0.000000
0.000000 0.192492 0.000000
0.000000 0.183698 0.000000
0.000000 0.172178 0.000000
0.000000 0.158081 0.000000
0.000000 0.141564 0.000000
0.016026 0.121148 0.000000
0.084632 0.094919 0.000000
0.126650 0.058527 0.000000
0.987090 0.809287 1.000000
0.991970 0.791429 1.000000
1.000000 0.757965 1.000000
1.000000 0.711171 1.000000
1.000000 0.652129 1.000000
1.000000 0.583669 0.910579
1.000000 0.507331 0.800669
1.000000 0.422876 0.691403
1.000000 0.327036 0.584479
1.000000 0.206641 0.481130
0.976041 0.000000 0.382288
0.864766 0.810277 1.000000
0.884634 0.794423 1.000000
0.919204 0.762243 1.000000
0.956986 0.714459 1.000000
0.987827 0.654966 0.970394
1.000000 0.586664 0.872329
1.000000 0.510971 0.769963
1.000000 0.427674 0.666470
1.000000 0.333864 0.564029
0.982898 0.218324 0.464214
0.956951 0.000000 0.368160
0.704551 0.796561 1.000000
0.731894 0.782680 1.000000
0.780344 0.753395 1.000000
0.835968 0.708906 0.946456
0.884654 0.652533 0.876125
0.920200 0.587156 0.794427
0.941594 0.514423 0.705639
0.949992 0.434506 0.613187
0.947177 0.345328 0.519688
0.934967 0.238812 0.427132
0.914756 0.057783 0.336876
0.541392 0.755660 0.873147
0.570279 0.744832 0.862433
0.623334 0.721314 0.838603
0.687851 0.684151 0.799687
0.748755 0.635246 0.746848
0.797891 0.576852 0.682578
0.832666 0.510654 0.609854
0.853388 0.437284 0.531566
0.861542 0.355690 0.450254
0.858831 0.260810 0.367958
0.846546 0.128301 0.286077
0.383916 0.695487 0.692483
0.412913 0.687411 0.684977
0.466712 0.669495 0.668071
0.533936 0.640277 0.639861
0.600453 0.600453 0.600453
0.657827 0.551360 0.550975
0.702485 0.494302 0.493191
0.733736 0.430048 0.429138
0.752220 0.358183 0.360755
0.758973 0.275707 0.289659
0.755103 0.170912 0.217170
0.215118 0.624211 0.517685
0.249130 0.618249 0.512231
0.308481 0.604844 0.499864
0.379629 0.582505 0.478979
0.449687 0.551241 0.449299
0.511714 0.511640 0.411237
0.562517 0.464444 0.365680
0.601006 0.410169 0.313786
0.627208 0.348677 0.256769
0.641697 0.278363 0.195691
0.645268 0.193291 0.131075
0.000000 0.547278 0.351902
0.000000 0.542865 0.347788
0.110784 0.532854 0.338416
0.213845 0.515914 0.322444
0.295322 0.491712 0.299429
0.363059 0.460336 0.269347
0.418308 0.422087 0.232478
0.461425 0.377245 0.189213
0.492761 0.325786 0.139680
0.512801 0.266871 0.082488
0.522147 0.197399 0.012107
0.000000 0.466336 0.191631
0.000000 0.463020 0.188255
0.000000 0.455452 0.180516
0.000000 0.442515 0.167156
0.104559 0.423771 0.147468
0.202930 0.399069 0.120729
0.268236 0.368448 0.085526
0.316727 0.332006 0.036315
0.352269 0.289731 0.000000
0.376822 0.240483 0.000000
0.390815 0.181437 0.000000
0.000000 0.380919 0.000000
0.000000 0.378397 0.000000
0.000000 0.372625 0.000000
0.000000 0.362693 0.000000
0.000000 0.348151 0.000000
0.000000 0.328492 0.000000
0.089753 0.303383 0.000000
0.164977 0.272671 0.000000
0.211694 0.236320 0.000000
0.243805 0.194199 0.000000
0.265552 0.145503 0.000000
0.000000 0.284947 0.000000
0.000000 0.282847 0.000000
0.000000 0.278024 0.000000
0.000000 0.269712 0.000000
0.000000 0.257522 0.000000
0.000000 0.241233 0.000000
0.000000 0.220768 0.000000
0.045253 0.196175 0.000000
0.113227 0.167577 0.000000
0.153026 0.135028 0.000000
0.181086 0.098035 0.000000
0.000000 0.200905 0.000000
0.000000 0.199368 0.000000
0.000000 0.195864 0.000000
0.000000 0.189875 0.000000
0.000000 0.181218 0.000000
0.000000 0.169883 0.000000
0.000000 0.156015 0.000000
0.000000 0.139654 0.000000
0.000000 0.119231 0.000000
0.065908 0.092903 0.000000
0.114002 0.056151 0.000000
0.958053 0.758245 1.000000
0.963655 0.746067 1.000000
0.975925 0.720372 1.000000
0.992314 0.679781 1.000000
1.000000 0.626220 1.000000
1.000000 0.562123 0.996410
1.000000 0.488927 0.889623
1.000000 0.406370 0.781666
1.000000 0.310808 0.674676
0.985861 0.186315 0.570201
0.960873 0.000000 0.469368
0.864192 0.764036 1.000000
0.877165 0.751607 1.000000
0.901277 0.724859 1.000000
0.930692 0.683277 1.000000
0.957552 0.629311 1.000000
0.977037 0.565349 0.959415
0.987277 0.492778 0.859365
0.988138 0.411397 0.756751
0.980295 0.317996 0.654021
0.964743 0.199182 0.552975
0.942403 0.000000 0.454892
0.715993 0.756677 1.000000
0.735493 0.744985 1.000000
0.772088 0.719734 1.000000
0.817419 0.680142 1.000000
0.860296 0.628396 0.962959
0.894063 0.566827 0.883258
0.916331 0.496932 0.795570
0.927096 0.418836 0.703297
0.927377 0.330219 0.609132
0.918510 0.221590 0.515171
0.901547 0.000635 0.422840
0.550124 0.725060 0.960023
0.573265 0.715386 0.949600
0.617360 0.694129 0.926360
0.673636 0.659970 0.888239
0.729444 0.614181 0.836168
0.776637 0.558571 0.772396
0.811752 0.494590 0.699721
0.834220 0.422737 0.620950
0.844875 0.341738 0.538613
0.844944 0.245661 0.454761
0.835425 0.102275 0.370871
0.384049 0.673055 0.782076
0.409725 0.665527 0.774593
0.458414 0.648738 0.757724
0.520951 0.621130 0.729526
0.584571 0.583120 0.690033
0.640944 0.535781 0.640283
0.686081 0.480221 0.581963
0.718795 0.417050 0.517060
0.739282 0.345633 0.447490
0.748272 0.262465 0.374938
0.746660 0.153132 0.300907
0.204689 0.607894 0.606543
0.238114 0.602181 0.601034
0.296494 0.589306 0.588541
0.366765 0.567765 0.567430
0.436478 0.537457 0.537399
0.498831 0.498831 0.498831
0.550568 0.452498 0.452603
0.590440 0.398851 0.399899
0.618301 0.337603 0.342044
0.634566 0.266830 0.280380
0.639894 0.179406 0.216215
0.000000 0.535271 0.438763
0.000000 0.530964 0.434602
0.087313 0.521179 0.425122
0.200661 0.504590 0.408975
0.285001 0.480825 0.385732
0.354381 0.449913 0.355420
0.411001 0.412085 0.318437
0.455461 0.367545 0.275449
0.488145 0.316158 0.227274
0.509506 0.256888 0.174758
0.520073 0.186035 0.118517
0.000000 0.457241 0.279128
0.000000 0.453964 0.275854
0.000000 0.446480 0.268370
0.000000 0.433674 0.255545
0.098677 0.415100 0.236909
0.200217 0.390581 0.212277
0.266721 0.360123 0.181675
0.316097 0.323780 0.145186
0.352394 0.281476 0.102584
0.376305 0.231902 0.050956
0.388515 0.172354 0.000000
0.000000 0.373844 0.121611
0.000000 0.371332 0.118721
0.000000 0.365581 0.112063
0.000000 0.355683 0.100435
0.000000 0.341133 0.082845
0.000000 0.321453 0.057552
0.095768 0.296396 0.022116
0.165170 0.265825 0.000000
0.209324 0.229653 0.000000
0.239788 0.187708 0.000000
0.260369 0.139057 0.000000
0.000000 0.279343 0.000000
0.000000 0.277263 0.000000
0.000000 0.272491 0.000000
0.000000 0.264264 0.000000
0.000000 0.252201 0.000000
0.000000 0.236084 0.000000
0.000000 0.215836 0.000000
0.022189 0.191506 0.000000
0.100172 0.163229 0.000000
0.142083 0.131048 0.000000
0.171010 0.094423 0.000000
0.000000 0.196997 0.000000
0.000000 0.195491 0.000000
0.000000 0.192057 0.000000
0.000000 0.186189 0.000000
0.000000 0.177707 0.000000
0.000000 0.166607 0.000000
0.000000 0.153038 0.000000
0.000000 0.136799 0.000000
0.000000 0.116307 0.000000
0.040241 0.089772 0.000000
0.098810 0.052284 0.000000
0.929340 0.710855 1.000000
0.934068 0.701018 1.000000
0.943804 0.679084 1.000000
0.957443 0.643357 1.000000
0.971522 0.594827 1.000000
0.982468 0.535097 1.000000
0.987834 0.465223 0.969676
0.986460 0.384662 0.864346
0.978122 0.288991 0.758550
0.963153 0.157036 0.654100
0.942008 0.000000 0.552261
0.852554 0.716494 1.000000
0.861476 0.706167 1.000000
0.879050 0.683501 1.000000
0.902259 0.647105 1.000000
0.925463 0.598267 1.000000
0.944113 0.538683 1.000000
0.955661 0.469433 0.940286
0.959177 0.390094 0.839793
0.954723 0.296809 0.737958
0.942872 0.172175 0.636765
0.924194 0.000000 0.537563
0.718346 0.713352 1.000000
0.732557 0.703387 1.000000
0.760402 0.681494 1.000000
0.797102 0.646302 1.000000
0.834288 0.599048 1.000000
0.865716 0.541422 0.963426
0.888225 0.474602 0.877900
0.900890 0.398498 0.786881
0.904008 0.310297 0.693076
0.898409 0.198029 0.598632
0.884758 0.000000 0.504974
0.555345 0.689844 1.000000
0.573783 0.681217 1.000000
0.610033 0.662080 1.000000
0.658367 0.630864 0.968222
0.708626 0.588288 0.917561
0.753169 0.535677 0.855044
0.787994 0.474171 0.783241
0.811781 0.404032 0.704819
0.824717 0.323608 0.622240
0.827510 0.225539 0.537485
0.820850 0.059105 0.452029
0.383694 0.646115 0.864556
0.406085 0.639144 0.857187
0.449466 0.623519 0.840555
0.506773 0.597614 0.812694
0.566795 0.561587 0.773548
0.621515 0.516223 0.724035
0.666645 0.462391 0.665724
0.700523 0.400481 0.600495
0.722887 0.329539 0.530165
0.734135 0.245285 0.456387
0.734928 0.128501 0.380652
0.191570 0.587793 0.690306
0.224458 0.582356 0.684793
0.281821 0.570072 0.672282
0.351032 0.549431 0.651115
0.420157 0.520222 0.620953
0.482616 0.482737 0.582113
0.535143 0.437432 0.535416
0.576355 0.384543 0.481996
0.605935 0.323572 0.423146
0.624134 0.252134 0.360210
0.631463 0.161184 0.294533
0.000000 0.520296 0.521503
0.000000 0.516112 0.517294
0.036380 0.506597 0.507705
0.179501 0.490427 0.491362
0.269113 0.467190 0.467817
0.341052 0.436848 0.437082
0.399544 0.399544 0.399544
0.445708 0.355380 0.355882
0.480079 0.304085 0.306986
0.503109 0.244327 0.253872
0.515289 0.171487 0.197663
0.000000 0.445877 0.360180
0.000000 0.442646 0.356875
0.000000 0.435269 0.349329
0.000000 0.422635 0.336409
0.076818 0.404276 0.317661
0.190303 0.379996 0.292960
0.260065 0.349753 0.262453
0.311387 0.313542 0.226513
0.349159 0.271163 0.185653
0.374076 0.220937 0.139598
0.386573 0.160121 0.088679
0.000000 0.365039 0.205882
0.000000 0.362541 0.203202
0.000000 0.356820 0.197065
0.000000 0.346954 0.186494
0.000000 0.332357 0.170902
0.000000 0.312622 0.149893
0.098516 0.287511 0.123201
0.167008 0.256925 0.090534
0.208762 0.220872 0.050824
0.236770 0.179087 0.000000
0.255649 0.130340 0.000000
0.000000 0.272064 0.043156
0.000000 0.270011 0.040153
0.000000 0.265298 0.032985
0.000000 0.257175 0.020474
0.000000 0.245264 0.001782
0.000000 0.229343 0.000000
0.000000 0.209343 0.000000
0.002934 0.185327 0.000000
0.086959 0.157425 0.000000
0.130847 0.125653 0.000000
0.160438 0.089388 0.000000
0.000000 0.191888 0.000000
0.000000 0.190420 0.000000
0.000000 0.187071 0.000000
0.000000 0.181350 0.000000
0.000000 0.173083 0.000000
0.000000 0.162268 0.000000
0.000000 0.149051 0.000000
0.000000 0.132818 0.000000
0.000000 0.112175 0.000000
0.009991 0.085246 0.000000
0.081414 0.046441 0.000000
0.895920 0.662291 1.000000
0.899774 0.653755 1.000000
0.907914 0.634603 1.000000
0.919772 0.602843 1.000000
0.932861 0.558694 1.000000
0.944187 0.503017 1.000000
0.951304 0.436325 1.000000
0.952730 0.357521 0.939684
0.947862 0.260754 0.836100
0.936706 0.113219 0.732676
0.919387 0.000000 0.630755
0.831319 0.667513 1.000000
0.837944 0.658712 1.000000
0.851472 0.639106 1.000000
0.870384 0.606908 1.000000
0.890693 0.562569 1.000000
0.908482 0.507082 1.000000
0.921009 0.441046 1.000000
0.926842 0.363568 0.915747
0.925539 0.269596 0.815787
0.917275 0.133425 0.715399
0.902247 0.000000 0.615964
0.710685 0.667512 1.000000
0.721428 0.658892 1.000000
0.743156 0.639718 1.000000
0.773230 0.608296 1.000000
0.805536 0.565139 1.000000
0.834627 0.511306 1.000000
0.857070 0.447538 0.952827
0.871311 0.373341 0.863926
0.877047 0.285036 0.771371
0.874605 0.165991 0.677295
0.864266 0.000000 0.583106
0.553716 0.650959 1.000000
0.568597 0.643247 1.000000
0.598594 0.626001 1.000000
0.640107 0.597512 1.000000
0.685158 0.558037 0.991246
0.726895 0.508436 0.930575
0.761111 0.449470 0.860324
