looks/invertcolors_g22.cube
TITLE "Generated by Foundry::LUT"
LUT_3D_SIZE 5
1.000000 1.000000 1.000000
0.750000 1.000000 1.000000
0.500000 1.000000 1.000000
0.250000 1.000000 1.000000
0.000000 1.000000 1.000000
1.000000 0.750000 1.000000
0.750000 0.750000 1.000000
0.500000 0.750000 1.000000
0.250000 0.750000 1.000000
0.000000 0.750000 1.000000
1.000000 0.500000 1.000000
0.750000 0.500000 1.000000
0.500000 0.500000 1.000000
0.250000 0.500000 1.000000
0.000000 0.500000 1.000000
1.000000 0.250000 1.000000
0.750000 0.250000 1.000000
0.500000 0.250000 1.000000
0.250000 0.250000 1.000000
0.000000 0.250000 1.000000
1.000000 0.000000 1.000000
0.750000 0.000000 1.000000
0.500000 0.000000 1.000000
0.250000 0.000000 1.000000
0.000000 0.000000 1.000000
1.000000 1.000000 0.750000
0.750000 1.000000 0.750000
0.500000 1.000000 0.750000
0.250000 1.000000 0.750000
0.000000 1.000000 0.750000
1.000000 0.750000 0.750000
0.750000 0.750000 0.750000
0.500000 0.750000 0.750000
0.250000 0.750000 0.750000
0.000000 0.750000 0.750000
1.000000 0.500000 0.750000
0.750000 0.500000 0.750000
0.500000 0.500000 0.750000
0.250000 0.500000 0.750000
0.000000 0.500000 0.750000
1.000000 0.250000 0.750000
0.750000 0.250000 0.750000
0.500000 0.250000 0.750000
0.250000 0.250000 0.750000
0.000000 0.250000 0.750000
1.000000 0.000000 0.750000
0.750000 0.000000 0.750000
0.500000 0.000000 0.750000
0.250000 0.000000 0.750000
0.000000 0.000000 0.750000
1.000000 1.000000 0.500000
0.750000 1.000000 0.500000
0.500000 1.000000 0.500000
0.250000 1.000000 0.500000
0.000000 1.000000 0.500000
1.000000 0.750000 0.500000
0.750000 0.750000 0.500000
0.500000 0.750000 0.500000
0.250000 0.750000 0.500000
0.000000 0.750000 0.500000
1.000000 0.500000 0.500000
0.750000 0.500000 0.500000
0.500000 0.500000 0.500000
0.250000 0.500000 0.500000
0.000000 0.500000 0.500000
1.000000 0.250000 0.500000
0.750000 0.250000 0.500000
0.500000 0.250000 0.500000
0.250000 0.250000 0.500000
0.000000 0.250000 0.500000
1.000000 0.000000 0.500000
0.750000 0.000000 0.500000
0.500000 0.000000 0.500000
0.250000 0.000000 0.500000
0.000000 0.000000 0.500000
1.000000 1.000000 0.250000
0.750000 1.000000 0.250000
0.500000 1.000000 0.250000
0.250000 1.000000 0.250000
0.000000 1.000000 0.250000
1.000000 0.750000 0.250000
0.750000 0.750000 0.250000
0.500000 0.750000 0.250000
0.250000 0.750000 0.250000
0.000000 0.750000 0.250000
1.000000 0.500000 0.250000
0.750000 0.500000 0.250000
0.500000 0.500000 0.250000
0.250000 0.500000 0.250000
0.000000 0.500000 0.250000
1.000000 0.250000 0.250000
0.750000 0.250000 0.250000
0.500000 0.250000 0.250000
0.250000 0.250000 0.250000
0.000000 0.250000 0.250000
1.000000 0.000000 0.250000
0.750000 0.000000 0.250000
0.500000 0.000000 0.250000
0.250000 0.000000 0.250000
0.000000 0.000000 0.250000
1.000000 1.000000 0.000000
0.750000 1.000000 0.000000
0.500000 1.000000 0.000000
0.250000 1.000000 0.000000
0.000000 1.000000 0.000000
1.000000 0.750000 0.000000
0.750000 0.750000 0.000000
0.500000 0.750000 0.000000
0.250000 0.750000 0.000000
0.000000 0.750000 0.000000
1.000000 0.500000 0.000000
0.750000 0.500000 0.000000
0.500000 0.500000 0.000000
0.250000 0.500000 0.000000
0.000000 0.500000 0.000000
1.000000 0.250000 0.000000
0.750000 0.250000 0.000000
0.500000 0.250000 0.000000
0.250000 0.250000 0.000000
0.000000 0.250000 0.000000
1.000000 0.000000 0.000000
0.750000 0.000000 0.000000
0.500000 0.000000 0.000000
0.250000 0.000000 0.000000
0.000000 0.000000 0.000000
