looks/invertbrightness_pq.cube
TITLE "Generated by Foundry::LUT"
LUT_3D_SIZE 11
1.000000 1.000000 1.000000
1.000000 1.000000 1.000000
1.000000 0.906954 0.909745
1.000000 0.747482 0.690013
1.000000 0.611111 0.496536
1.000000 0.460548 0.323009
1.000000 0.281951 0.162104
1.000000 0.008906 0.002244
1.000000 0.008906 0.002244
1.000000 0.008906 0.002244
1.000000 0.008906 0.002244
1.000000 1.000000 1.000000
1.000000 1.000000 1.000000
1.000000 0.906954 0.909745
1.000000 0.747482 0.690013
1.000000 0.611111 0.496536
1.000000 0.460548 0.323009
1.000000 0.281951 0.162104
1.000000 0.008906 0.002244
1.000000 0.008906 0.002244
1.000000 0.008906 0.002244
1.000000 0.008906 0.002244
0.746746 0.918942 0.746177
0.746746 0.918942 0.746177
0.874363 0.863697 0.702367
1.000000 0.749460 0.586937
1.000000 0.615776 0.439590
1.000000 0.468678 0.289772
1.000000 0.297429 0.133945
0.964122 0.086344 0.000000
0.964122 0.086344 0.000000
0.964122 0.086344 0.000000
0.964122 0.086344 0.000000
0.524649 0.793917 0.451622
0.524649 0.793917 0.451622
0.591950 0.770632 0.435870
0.721728 0.700904 0.383271
0.817814 0.597166 0.294936
0.860678 0.471649 0.178005
0.861175 0.324680 0.000000
0.840402 0.175419 0.000000
0.840402 0.175419 0.000000
0.840402 0.175419 0.000000
0.840402 0.175419 0.000000
0.244423 0.648310 0.183583
0.244423 0.648310 0.183583
0.300713 0.636455 0.173112
0.420164 0.596754 0.134862
0.530798 0.528843 0.046341
0.605079 0.437502 0.000000
0.640657 0.324725 0.000000
0.646332 0.216044 0.000000
0.646332 0.216044 0.000000
0.646332 0.216044 0.000000
0.646332 0.216044 0.000000
0.000000 0.496411 0.000000
0.000000 0.496411 0.000000
0.000000 0.489755 0.000000
0.000000 0.466491 0.000000
0.228877 0.423662 0.000000
0.333009 0.361313 0.000000
0.395851 0.279748 0.000000
0.420876 0.199916 0.000000
0.420876 0.199916 0.000000
0.420876 0.199916 0.000000
0.420876 0.199916 0.000000
0.000000 0.333036 0.000000
0.000000 0.333036 0.000000
0.000000 0.328769 0.000000
0.000000 0.313507 0.000000
0.000000 0.284252 0.000000
0.098382 0.239749 0.000000
0.187711 0.180102 0.000000
0.225735 0.123433 0.000000
0.225735 0.123433 0.000000
0.225735 0.123433 0.000000
0.225735 0.123433 0.000000
0.000000 0.206917 0.000000
0.000000 0.206917 0.000000
0.000000 0.203928 0.000000
0.000000 0.193453 0.000000
0.000000 0.174150 0.000000
0.000000 0.146495 0.000000
0.093561 0.107589 0.000000
0.145058 0.060662 0.000000
0.145058 0.060662 0.000000
0.145058 0.060662 0.000000
0.145058 0.060662 0.000000
0.000000 0.206917 0.000000
0.000000 0.206917 0.000000
0.000000 0.203928 0.000000
0.000000 0.193453 0.000000
0.000000 0.174150 0.000000
0.000000 0.146495 0.000000
0.093561 0.107589 0.000000
0.145058 0.060662 0.000000
0.145058 0.060662 0.000000
0.145058 0.060662 0.000000
0.145058 0.060662 0.000000
0.000000 0.206917 0.000000
0.000000 0.206917 0.000000
0.000000 0.203928 0.000000
0.000000 0.193453 0.000000
0.000000 0.174150 0.000000
0.000000 0.146495 0.000000
0.093561 0.107589 0.000000
0.145058 0.060662 0.000000
0.145058 0.060662 0.000000
0.145058 0.060662 0.000000
0.145058 0.060662 0.000000
0.000000 0.206917 0.000000
0.000000 0.206917 0.000000
0.000000 0.203928 0.000000
0.000000 0.193453 0.000000
0.000000 0.174150 0.000000
0.000000 0.146495 0.000000
0.093561 0.107589 0.000000
0.145058 0.060662 0.000000
0.145058 0.060662 0.000000
0.145058 0.060662 0.000000
0.145058 0.060662 0.000000
1.000000 1.000000 1.000000
1.000000 1.000000 1.000000
1.000000 0.906954 0.909745
1.000000 0.747482 0.690013
1.000000 0.611111 0.496536
1.000000 0.460548 0.323009
1.000000 0.281951 0.162104
1.000000 0.008906 0.002244
1.000000 0.008906 0.002244
1.000000 0.008906 0.002244
1.000000 0.008906 0.002244
1.000000 1.000000 1.000000
1.000000 1.000000 1.000000
1.000000 0.906954 0.909745
1.000000 0.747482 0.690013
1.000000 0.611111 0.496536
1.000000 0.460548 0.323009
1.000000 0.281951 0.162104
1.000000 0.008906 0.002244
1.000000 0.008906 0.002244
1.000000 0.008906 0.002244
1.000000 0.008906 0.002244
0.746746 0.918942 0.746177
0.746746 0.918942 0.746177
0.874363 0.863697 0.702367
1.000000 0.749460 0.586937
1.000000 0.615776 0.439590
1.000000 0.468678 0.289772
1.000000 0.297429 0.133945
0.964122 0.086344 0.000000
0.964122 0.086344 0.000000
0.964122 0.086344 0.000000
0.964122 0.086344 0.000000
0.524649 0.793917 0.451622
0.524649 0.793917 0.451622
0.591950 0.770632 0.435870
0.721728 0.700904 0.383271
0.817814 0.597166 0.294936
0.860678 0.471649 0.178005
0.861175 0.324680 0.000000
0.840402 0.175419 0.000000
0.840402 0.175419 0.000000
0.840402 0.175419 0.000000
0.840402 0.175419 0.000000
0.244423 0.648310 0.183583
0.244423 0.648310 0.183583
0.300713 0.636455 0.173112
0.420164 0.596754 0.134862
0.530798 0.528843 0.046341
0.605079 0.437502 0.000000
0.640657 0.324725 0.000000
0.646332 0.216044 0.000000
0.646332 0.216044 0.000000
0.646332 0.216044 0.000000
0.646332 0.216044 0.000000
0.000000 0.496411 0.000000
0.000000 0.496411 0.000000
0.000000 0.489755 0.000000
0.000000 0.466491 0.000000
0.228877 0.423662 0.000000
0.333009 0.361313 0.000000
0.395851 0.279748 0.000000
0.420876 0.199916 0.000000
0.420876 0.199916 0.000000
0.420876 0.199916 0.000000
0.420876 0.199916 0.000000
0.000000 0.333036 0.000000
0.000000 0.333036 0.000000
0.000000 0.328769 0.000000
0.000000 0.313507 0.000000
0.000000 0.284252 0.000000
0.098382 0.239749 0.000000
0.187711 0.180102 0.000000
0.225735 0.123433 0.000000
0.225735 0.123433 0.000000
0.225735 0.123433 0.000000
0.225735 0.123433 0.000000
0.000000 0.206917 0.000000
0.000000 0.206917 0.000000
0.000000 0.203928 0.000000
0.000000 0.193453 0.000000
0.000000 0.174150 0.000000
0.000000 0.146495 0.000000
0.093561 0.107589 0.000000
0.145058 0.060662 0.000000
0.145058 0.060662 0.000000
0.145058 0.060662 0.000000
0.145058 0.060662 0.000000
0.000000 0.206917 0.000000
0.000000 0.206917 0.000000
0.000000 0.203928 0.000000
0.000000 0.193453 0.000000
0.000000 0.174150 0.000000
0.000000 0.146495 0.000000
0.093561 0.107589 0.000000
0.145058 0.060662 0.000000
0.145058 0.060662 0.000000
0.145058 0.060662 0.000000
0.145058 0.060662 0.000000
0.000000 0.206917 0.000000
0.000000 0.206917 0.000000
0.000000 0.203928 0.000000
0.000000 0.193453 0.000000
0.000000 0.174150 0.000000
0.000000 0.146495 0.000000
0.093561 0.107589 0.000000
0.145058 0.060662 0.000000
0.145058 0.060662 0.000000
0.145058 0.060662 0.000000
0.145058 0.060662 0.000000
0.000000 0.206917 0.000000
0.000000 0.206917 0.000000
0.000000 0.203928 0.000000
0.000000 0.193453 0.000000
0.000000 0.174150 0.000000
0.000000 0.146495 0.000000
0.093561 0.107589 0.000000
0.145058 0.060662 0.000000
0.145058 0.060662 0.000000
0.145058 0.060662 0.000000
0.145058 0.060662 0.000000
0.969316 0.967716 1.000000
0.969316 0.967716 1.000000
1.000000 0.878451 1.000000
1.000000 0.741947 0.839872
1.000000 0.608631 0.639947
1.000000 0.458604 0.451198
1.000000 0.279112 0.275366
0.998536 0.000000 0.145689
0.998536 0.000000 0.145689
0.998536 0.000000 0.145689
0.998536 0.000000 0.145689
0.969316 0.967716 1.000000
0.969316 0.967716 1.000000
1.000000 0.878451 1.000000
1.000000 0.741947 0.839872
1.000000 0.608631 0.639947
1.000000 0.458604 0.451198
1.000000 0.279112 0.275366
0.998536 0.000000 0.145689
0.998536 0.000000 0.145689
0.998536 0.000000 0.145689
0.998536 0.000000 0.145689
0.744522 0.897394 0.893706
0.744522 0.897394 0.893706
0.850127 0.850127 0.850127
0.979946 0.743556 0.731572
1.000000 0.612709 0.574754
1.000000 0.466250 0.408760
1.000000 0.294413 0.245178
0.960749 0.077333 0.118837
0.960749 0.077333 0.118837
0.960749 0.077333 0.118837
0.960749 0.077333 0.118837
0.505782 0.786452 0.571472
0.505782 0.786452 0.571472
0.573046 0.764025 0.554021
0.705138 0.696025 0.496246
0.805850 0.593590 0.400878
0.853395 0.468661 0.280537
0.857510 0.321543 0.143000
0.838593 0.170658 0.000006
0.838593 0.170658 0.000006
0.838593 0.170658 0.000006
0.838593 0.170658 0.000006
0.234345 0.644396 0.276705
0.234345 0.644396 0.276705
0.292440 0.632670 0.266894
0.414385 0.593324 0.232576
0.527068 0.525815 0.168593
0.603121 0.434728 0.062361
0.639792 0.321960 0.000000
0.645008 0.213104 0.000000
0.645008 0.213104 0.000000
0.645008 0.213104 0.000000
0.645008 0.213104 0.000000
0.000000 0.494012 0.000000
0.000000 0.494012 0.000000
0.000000 0.487374 0.000000
0.000235 0.464183 0.000000
0.229859 0.421508 0.000000
0.332372 0.359346 0.000000
0.394451 0.277934 0.000000
0.419028 0.198065 0.000000
0.419028 0.198065 0.000000
0.419028 0.198065 0.000000
0.419028 0.198065 0.000000
0.000000 0.331716 0.000000
0.000000 0.331716 0.000000
0.000000 0.327450 0.000000
0.000000 0.312211 0.000000
0.000000 0.283008 0.000000
0.091252 0.238606 0.000000
0.183453 0.179126 0.000000
0.221995 0.122635 0.000000
0.221995 0.122635 0.000000
0.221995 0.122635 0.000000
0.221995 0.122635 0.000000
0.000000 0.206121 0.000000
0.000000 0.206121 0.000000
0.000000 0.203150 0.000000
0.000000 0.192729 0.000000
0.000000 0.173535 0.000000
0.000000 0.146042 0.000000
0.085648 0.107167 0.000000
0.139907 0.060218 0.000000
0.139907 0.060218 0.000000
0.139907 0.060218 0.000000
0.139907 0.060218 0.000000
0.000000 0.206121 0.000000
0.000000 0.206121 0.000000
0.000000 0.203150 0.000000
0.000000 0.192729 0.000000
0.000000 0.173535 0.000000
0.000000 0.146042 0.000000
0.085648 0.107167 0.000000
0.139907 0.060218 0.000000
0.139907 0.060218 0.000000
0.139907 0.060218 0.000000
0.139907 0.060218 0.000000
0.000000 0.206121 0.000000
0.000000 0.206121 0.000000
0.000000 0.203150 0.000000
0.000000 0.192729 0.000000
0.000000 0.173535 0.000000
0.000000 0.146042 0.000000
0.085648 0.107167 0.000000
0.139907 0.060218 0.000000
0.139907 0.060218 0.000000
0.139907 0.060218 0.000000
0.139907 0.060218 0.000000
0.000000 0.206121 0.000000
0.000000 0.206121 0.000000
0.000000 0.203150 0.000000
0.000000 0.192729 0.000000
0.000000 0.173535 0.000000
0.000000 0.146042 0.000000
0.085648 0.107167 0.000000
0.139907 0.060218 0.000000
0.139907 0.060218 0.000000
0.139907 0.060218 0.000000
0.139907 0.060218 0.000000
1.000000 0.854330 1.000000
1.000000 0.854330 1.000000
1.000000 0.808680 1.000000
1.000000 0.715309 1.000000
1.000000 0.592572 0.834607
1.000000 0.446766 0.637339
1.000000 0.266486 0.449612
0.984969 0.000000 0.314959
0.984969 0.000000 0.314959
0.984969 0.000000 0.314959
0.984969 0.000000 0.314959
1.000000 0.854330 1.000000
1.000000 0.854330 1.000000
1.000000 0.808680 1.000000
1.000000 0.715309 1.000000
1.000000 0.592572 0.834607
1.000000 0.446766 0.637339
1.000000 0.266486 0.449612
0.984969 0.000000 0.314959
0.984969 0.000000 0.314959
0.984969 0.000000 0.314959
0.984969 0.000000 0.314959
0.779859 0.837797 1.000000
0.779859 0.837797 1.000000
0.836982 0.805518 1.000000
0.934805 0.717393 0.924503
0.993134 0.596445 0.765099
1.000000 0.454181 0.590336
0.982868 0.282055 0.416645
0.948666 0.035707 0.289214
0.948666 0.035707 0.289214
0.948666 0.035707 0.289214
0.948666 0.035707 0.289214
0.497184 0.759199 0.755493
0.497184 0.759199 0.755493
0.554724 0.739250 0.737253
0.676769 0.676768 0.676768
0.778780 0.579198 0.576499
0.833174 0.457065 0.450251
0.844902 0.310143 0.312346
0.830932 0.153504 0.204241
0.830932 0.153504 0.204241
0.830932 0.153504 0.204241
0.830932 0.153504 0.204241
0.214482 0.630313 0.441342
0.214482 0.630313 0.441342
0.274657 0.619037 0.431381
0.399319 0.580961 0.396987
0.515175 0.514977 0.335500
0.595140 0.424971 0.250287
0.635670 0.312219 0.145655
0.642274 0.201714 0.045133
0.642274 0.201714 0.045133
0.642274 0.201714 0.045133
0.642274 0.201714 0.045133
0.000000 0.485653 0.146588
0.000000 0.485653 0.146588
0.000000 0.479085 0.139500
0.022750 0.456110 0.113747
0.234704 0.413752 0.059166
0.333709 0.352017 0.000000
0.392210 0.271063 0.000000
0.414740 0.190904 0.000000
0.414740 0.190904 0.000000
0.414740 0.190904 0.000000
0.414740 0.190904 0.000000
0.000000 0.326770 0.000000
0.000000 0.326770 0.000000
0.000000 0.322525 0.000000
0.000000 0.307353 0.000000
0.000000 0.278321 0.000000
0.071682 0.234251 0.000000
0.171681 0.175302 0.000000
0.211289 0.119334 0.000000
0.211289 0.119334 0.000000
0.211289 0.119334 0.000000
0.211289 0.119334 0.000000
0.000000 0.203083 0.000000
0.000000 0.203083 0.000000
0.000000 0.200164 0.000000
0.000000 0.189937 0.000000
0.000000 0.171101 0.000000
0.000000 0.144113 0.000000
0.058385 0.105256 0.000000
0.123686 0.058039 0.000000
0.123686 0.058039 0.000000
0.123686 0.058039 0.000000
0.123686 0.058039 0.000000
0.000000 0.203083 0.000000
0.000000 0.203083 0.000000
0.000000 0.200164 0.000000
0.000000 0.189937 0.000000
0.000000 0.171101 0.000000
0.000000 0.144113 0.000000
0.058385 0.105256 0.000000
0.123686 0.058039 0.000000
0.123686 0.058039 0.000000
0.123686 0.058039 0.000000
0.123686 0.058039 0.000000
0.000000 0.203083 0.000000
0.000000 0.203083 0.000000
0.000000 0.200164 0.000000
0.000000 0.189937 0.000000
0.000000 0.171101 0.000000
0.000000 0.144113 0.000000
0.058385 0.105256 0.000000
0.123686 0.058039 0.000000
0.123686 0.058039 0.000000
0.123686 0.058039 0.000000
0.123686 0.058039 0.000000
0.000000 0.203083 0.000000
0.000000 0.203083 0.000000
0.000000 0.200164 0.000000
0.000000 0.189937 0.000000
0.000000 0.171101 0.000000
0.000000 0.144113 0.000000
0.058385 0.105256 0.000000
0.123686 0.058039 0.000000
0.123686 0.058039 0.000000
0.123686 0.058039 0.000000
0.123686 0.058039 0.000000
0.956808 0.756093 1.000000
0.956808 0.756093 1.000000
0.967242 0.734038 1.000000
0.994996 0.665739 1.000000
1.000000 0.557951 0.995301
1.000000 0.419975 0.803456
0.992742 0.238309 0.613137
0.960109 0.000000 0.473167
0.960109 0.000000 0.473167
0.960109 0.000000 0.473167
0.960109 0.000000 0.473167
0.956808 0.756093 1.000000
0.956808 0.756093 1.000000
0.967242 0.734038 1.000000
0.994996 0.665739 1.000000
1.000000 0.557951 0.995301
1.000000 0.419975 0.803456
0.992742 0.238309 0.613137
0.960109 0.000000 0.473167
0.960109 0.000000 0.473167
0.960109 0.000000 0.473167
0.960109 0.000000 0.473167
0.799713 0.761381 1.000000
0.799713 0.761381 1.000000
0.828233 0.738802 1.000000
0.891691 0.669391 1.000000
0.943161 0.562639 0.928519
0.962668 0.428003 0.756044
0.951491 0.255574 0.578920
0.925791 0.000000 0.446198
0.925791 0.000000 0.446198
0.925791 0.000000 0.446198
0.925791 0.000000 0.446198
0.507891 0.712021 0.918472
0.507891 0.712021 0.918472
0.550000 0.695161 0.900663
0.649512 0.640385 0.841155
0.744099 0.550692 0.741044
0.802166 0.433800 0.612778
0.821765 0.287588 0.470511
0.814161 0.116973 0.358254
0.814161 0.116973 0.358254
0.814161 0.116973 0.358254
0.814161 0.116973 0.358254
0.194807 0.603964 0.602708
0.194807 0.603964 0.602708
0.254239 0.593435 0.592520
0.377480 0.557544 0.557324
0.494350 0.494350 0.494350
0.578121 0.406514 0.407297
0.623843 0.293995 0.303021
0.634479 0.179394 0.215734
0.634479 0.179394 0.215734
0.634479 0.179394 0.215734
0.634479 0.179394 0.215734
0.000000 0.470109 0.308970
0.000000 0.470109 0.308970
0.000000 0.463679 0.302594
0.002495 0.441139 0.280191
0.230567 0.399395 0.238617
0.332368 0.338136 0.177908
0.391611 0.257115 0.098947
0.410906 0.175699 0.017014
0.410906 0.175699 0.017014
0.410906 0.175699 0.017014
0.410906 0.175699 0.017014
0.000000 0.316722 0.007323
0.000000 0.316722 0.007323
0.000000 0.312501 0.001854
0.000000 0.297464 0.000000
0.000000 0.268744 0.000000
0.050295 0.225253 0.000000
0.157328 0.167157 0.000000
0.197089 0.111867 0.000000
0.197089 0.111867 0.000000
0.197089 0.111867 0.000000
0.197089 0.111867 0.000000
0.000000 0.196794 0.000000
0.000000 0.196794 0.000000
0.000000 0.193970 0.000000
0.000000 0.184081 0.000000
0.000000 0.165881 0.000000
0.000000 0.139606 0.000000
0.007187 0.100516 0.000000
0.098079 0.052070 0.000000
0.098079 0.052070 0.000000
0.098079 0.052070 0.000000
0.098079 0.052070 0.000000
0.000000 0.196794 0.000000
0.000000 0.196794 0.000000
0.000000 0.193970 0.000000
0.000000 0.184081 0.000000
0.000000 0.165881 0.000000
0.000000 0.139606 0.000000
0.007187 0.100516 0.000000
0.098079 0.052070 0.000000
0.098079 0.052070 0.000000
0.098079 0.052070 0.000000
0.098079 0.052070 0.000000
0.000000 0.196794 0.000000
0.000000 0.196794 0.000000
0.000000 0.193970 0.000000
0.000000 0.184081 0.000000
0.000000 0.165881 0.000000
0.000000 0.139606 0.000000
0.007187 0.100516 0.000000
0.098079 0.052070 0.000000
0.098079 0.052070 0.000000
0.098079 0.052070 0.000000
0.098079 0.052070 0.000000
0.000000 0.196794 0.000000
0.000000 0.196794 0.000000
0.000000 0.193970 0.000000
0.000000 0.184081 0.000000
0.000000 0.165881 0.000000
0.000000 0.139606 0.000000
0.007187 0.100516 0.000000
0.098079 0.052070 0.000000
0.098079 0.052070 0.000000
0.098079 0.052070 0.000000
0.098079 0.052070 0.000000
0.901853 0.670494 1.000000
0.901853 0.670494 1.000000
0.909140 0.654187 1.000000
0.929670 0.599520 1.000000
0.951173 0.505914 1.000000
0.958855 0.376538 0.944851
0.946540 0.187764 0.758954
0.923413 0.000000 0.618007
0.923413 0.000000 0.618007
0.923413 0.000000 0.618007
0.923413 0.000000 0.618007
0.901853 0.670494 1.000000
0.901853 0.670494 1.000000
0.909140 0.654187 1.000000
0.929670 0.599520 1.000000
0.951173 0.505914 1.000000
0.958855 0.376538 0.944851
0.946540 0.187764 0.758954
0.923413 0.000000 0.618007
0.923413 0.000000 0.618007
0.923413 0.000000 0.618007
0.923413 0.000000 0.618007
0.784393 0.677095 1.000000
0.784393 0.677095 1.000000
0.800503 0.660279 1.000000
0.842553 0.604961 1.000000
0.885665 0.512184 1.000000
0.909441 0.386185 0.899130
0.908318 0.209835 0.724792
0.891294 0.000000 0.590466
0.891294 0.000000 0.590466
0.891294 0.000000 0.590466
0.891294 0.000000 0.590466
0.511237 0.649919 1.000000
0.511237 0.649919 1.000000
0.541030 0.635863 1.000000
0.618389 0.588786 0.980628
0.701824 0.508041 0.884410
0.760733 0.397653 0.758396
0.787319 0.251183 0.615382
0.786445 0.029919 0.500084
0.786445 0.029919 0.500084
0.786445 0.029919 0.500084
0.786445 0.029919 0.500084
0.163397 0.565726 0.748318
0.163397 0.565726 0.748318
0.223384 0.556096 0.738171
0.345353 0.522927 0.703009
0.462431 0.463381 0.639647
0.549691 0.378526 0.551139
0.601198 0.266084 0.443791
0.616923 0.142989 0.352881
0.616923 0.142989 0.352881
0.616923 0.142989 0.352881
0.616923 0.142989 0.352881
0.000000 0.446991 0.451152
0.000000 0.446991 0.451152
0.000000 0.440768 0.444637
0.000000 0.418882 0.421737
0.205135 0.378087 0.379272
0.317588 0.317588 0.317588
0.382512 0.235922 0.239336
0.404721 0.150599 0.168702
0.404721 0.150599 0.168702
0.404721 0.150599 0.168702
0.404721 0.150599 0.168702
0.000000 0.301206 0.173240
0.000000 0.301206 0.173240
0.000000 0.296990 0.168565
0.000000 0.281995 0.151983
0.000000 0.253487 0.120606
0.042706 0.210620 0.073429
0.145285 0.153599 0.000000
0.182942 0.098816 0.000000
0.182942 0.098816 0.000000
0.182942 0.098816 0.000000
0.182942 0.098816 0.000000
0.000000 0.186686 0.000000
0.000000 0.186686 0.000000
0.000000 0.183998 0.000000
0.000000 0.174585 0.000000
0.000000 0.157276 0.000000
0.000000 0.131523 0.000000
0.000000 0.091582 0.000000
0.065255 0.039601 0.000000
0.065255 0.039601 0.000000
0.065255 0.039601 0.000000
0.065255 0.039601 0.000000
0.000000 0.186686 0.000000
0.000000 0.186686 0.000000
0.000000 0.183998 0.000000
0.000000 0.174585 0.000000
0.000000 0.157276 0.000000
0.000000 0.131523 0.000000
0.000000 0.091582 0.000000
0.065255 0.039601 0.000000
0.065255 0.039601 0.000000
0.065255 0.039601 0.000000
0.065255 0.039601 0.000000
0.000000 0.186686 0.000000
0.000000 0.186686 0.000000
0.000000 0.183998 0.000000
0.000000 0.174585 0.000000
0.000000 0.157276 0.000000
0.000000 0.131523 0.000000
0.000000 0.091582 0.000000
0.065255 0.039601 0.000000
0.065255 0.039601 0.000000
0.065255 0.039601 0.000000
0.065255 0.039601 0.000000
0.000000 0.186686 0.000000
0.000000 0.186686 0.000000
0.000000 0.183998 0.000000
0.000000 0.174585 0.000000
0.000000 0.157276 0.000000
0.000000 0.131523 0.000000
0.000000 0.091582 0.000000
0.065255 0.039601 0.000000
0.065255 0.039601 0.000000
0.065255 0.039601 0.000000
0.065255 0.039601 0.000000
0.830259 0.579883 1.000000
0.830259 0.579883 1.000000
0.836150 0.566708 1.000000
0.853783 0.521175 1.000000
0.875755 0.438552 1.000000
0.889905 0.315061 1.000000
0.888337 0.090777 0.886793
0.874460 0.000000 0.748504
0.874460 0.000000 0.748504
0.874460 0.000000 0.748504
0.874460 0.000000 0.748504
0.830259 0.579883 1.000000
0.830259 0.579883 1.000000
0.836150 0.566708 1.000000
0.853783 0.521175 1.000000
0.875755 0.438552 1.000000
0.889905 0.315061 1.000000
0.888337 0.090777 0.886793
0.874460 0.000000 0.748504
0.874460 0.000000 0.748504
0.874460 0.000000 0.748504
0.874460 0.000000 0.748504
0.738131 0.587703 1.000000
0.738131 0.587703 1.000000
0.748992 0.574342 1.000000
0.780142 0.528670 1.000000
0.817823 0.447122 1.000000
0.845038 0.327739 1.000000
0.853105 0.131230 0.853616
0.844552 0.000000 0.721086
0.844552 0.000000 0.721086
0.844552 0.000000 0.721086
0.844552 0.000000 0.721086
0.489493 0.577425 1.000000
0.489493 0.577425 1.000000
0.511886 0.565596 1.000000
0.574000 0.525043 1.000000
0.648170 0.452574 1.000000
0.707448 0.348172 0.886257
0.740502 0.196351 0.745971
0.746447 0.000000 0.630307
0.746447 0.000000 0.630307
0.746447 0.000000 0.630307
0.746447 0.000000 0.630307
0.068296 0.517174 0.876603
0.068296 0.517174 0.876603
0.155309 0.508448 0.866745
0.291877 0.478075 0.832451
0.414183 0.422405 0.770128
0.506720 0.340663 0.681995
0.565102 0.226899 0.573464
0.586840 0.081020 0.480079
0.586840 0.081020 0.480079
0.586840 0.081020 0.480079
0.586840 0.081020 0.480079
0.000000 0.416461 0.581336
0.000000 0.416461 0.581336
0.000000 0.410493 0.574724
0.000000 0.389428 0.551437
0.136325 0.349833 0.508067
0.281387 0.290277 0.444622
0.357383 0.207089 0.362605
0.385478 0.114438 0.287640
0.385478 0.114438 0.287640
0.385478 0.114438 0.287640
0.385478 0.114438 0.287640
0.000000 0.280797 0.295035
0.000000 0.280797 0.295035
0.000000 0.276613 0.290210
0.000000 0.261739 0.273133
0.000000 0.233484 0.241037
0.000214 0.190937 0.193809
0.134092 0.134093 0.134092
0.170598 0.078653 0.082738
0.170598 0.078653 0.082738
0.170598 0.078653 0.082738
0.170598 0.078653 0.082738
0.000000 0.172653 0.089225
0.000000 0.172653 0.089225
0.000000 0.170136 0.085885
0.000000 0.161320 0.073433
0.000000 0.145067 0.043342
0.000000 0.118973 0.000000
0.000000 0.076900 0.000000
0.024974 0.019097 0.000000
0.024974 0.019097 0.000000
0.024974 0.019097 0.000000
0.024974 0.019097 0.000000
0.000000 0.172653 0.089225
0.000000 0.172653 0.089225
0.000000 0.170136 0.085885
0.000000 0.161320 0.073433
0.000000 0.145067 0.043342
0.000000 0.118973 0.000000
0.000000 0.076900 0.000000
0.024974 0.019097 0.000000
0.024974 0.019097 0.000000
0.024974 0.019097 0.000000
0.024974 0.019097 0.000000
0.000000 0.172653 0.089225
0.000000 0.172653 0.089225
0.000000 0.170136 0.085885
0.000000 0.161320 0.073433
0.000000 0.145067 0.043342
0.000000 0.118973 0.000000
0.000000 0.076900 0.000000
0.024974 0.019097 0.000000
0.024974 0.019097 0.000000
0.024974 0.019097 0.000000
0.024974 0.019097 0.000000
0.000000 0.172653 0.089225
0.000000 0.172653 0.089225
0.000000 0.170136 0.085885
0.000000 0.161320 0.073433
0.000000 0.145067 0.043342
0.000000 0.118973 0.000000
0.000000 0.076900 0.000000
0.024974 0.019097 0.000000
0.024974 0.019097 0.000000
0.024974 0.019097 0.000000
0.024974 0.019097 0.000000
0.762585 0.506286 1.000000
0.762585 0.506286 1.000000
0.768187 0.494657 1.000000
0.785489 0.453763 1.000000
0.809067 0.376636 1.000000
0.828311 0.252495 1.000000
0.834780 0.000000 0.973632
0.827867 0.000000 0.839139
0.827867 0.000000 0.839139
0.827867 0.000000 0.839139
0.827867 0.000000 0.839139
0.762585 0.506286 1.000000
0.762585 0.506286 1.000000
0.768187 0.494657 1.000000
0.785489 0.453763 1.000000
0.809067 0.376636 1.000000
0.828311 0.252495 1.000000
0.834780 0.000000 0.973632
0.827867 0.000000 0.839139
0.827867 0.000000 0.839139
0.827867 0.000000 0.839139
0.827867 0.000000 0.839139
0.683312 0.515564 1.000000
0.683312 0.515564 1.000000
0.692439 0.503910 1.000000
0.719827 0.463256 1.000000
0.756071 0.387703 1.000000
0.786585 0.269416 1.000000
0.801652 0.000000 0.941621
0.799554 0.000000 0.812181
0.799554 0.000000 0.812181
0.799554 0.000000 0.812181
0.799554 0.000000 0.812181
0.449197 0.516367 1.000000
0.449197 0.516367 1.000000
0.468775 0.505846 1.000000
0.524790 0.469253 1.000000
0.595457 0.401932 1.000000
0.656364 0.300308 0.973157
0.694790 0.132677 0.836704
