looks/invertbrightness_g22.cube
TITLE "Generated by Foundry::LUT"
LUT_3D_SIZE 6
1.000000 1.000000 1.000000
1.000000 0.850301 0.848960
1.000000 0.692346 0.607205
1.000000 0.532794 0.401341
1.000000 0.349750 0.218907
1.000000 0.008906 0.002244
0.684261 0.884835 0.649084
0.837403 0.817661 0.598096
0.966939 0.691531 0.479698
1.000000 0.540559 0.331111
0.988061 0.368041 0.168860
0.936369 0.116640 0.000000
0.417140 0.734827 0.343855
0.508238 0.705080 0.322222
0.644132 0.629128 0.261136
0.737087 0.517230 0.157620
0.774002 0.378854 0.000000
0.766125 0.199022 0.000000
0.000000 0.567735 0.000000
0.133600 0.552734 0.000000
0.305942 0.510258 0.000000
0.424054 0.439226 0.000000
0.495947 0.342173 0.000000
0.527469 0.214894 0.000000
0.000000 0.392619 0.000000
0.000000 0.384206 0.000000
0.000000 0.359373 0.000000
0.101007 0.314310 0.000000
0.224307 0.246597 0.000000
0.280310 0.154974 0.000000
0.000000 0.206917 0.000000
0.000000 0.201692 0.000000
0.000000 0.186503 0.000000
0.000000 0.160330 0.000000
0.060695 0.123071 0.000000
0.145058 0.060662 0.000000
0.971160 0.941159 1.000000
1.000000 0.821309 1.000000
1.000000 0.684579 0.818308
1.000000 0.528415 0.596174
1.000000 0.345218 0.388206
0.995614 0.000000 0.197062
0.673603 0.859143 0.855201
0.801315 0.801315 0.801315
0.931374 0.683054 0.673382
0.983053 0.535140 0.505805
0.975692 0.362950 0.328241
0.931086 0.104222 0.152427
0.395697 0.724978 0.497555
0.488230 0.696306 0.474061
0.628031 0.622194 0.409042
0.726481 0.511665 0.305832
0.768502 0.373684 0.175232
0.763798 0.192068 0.000000
0.000000 0.562535 0.164373
0.129879 0.547677 0.149299
0.304543 0.505526 0.102255
0.423905 0.434820 0.000000
0.495030 0.338105 0.000000
0.525184 0.210829 0.000000
0.000000 0.389780 0.000000
0.000000 0.381402 0.000000
0.000000 0.356669 0.000000
0.093800 0.311698 0.000000
0.219404 0.244166 0.000000
0.275407 0.152816 0.000000
0.000000 0.205501 0.000000
0.000000 0.200325 0.000000
0.000000 0.185283 0.000000
0.000000 0.159365 0.000000
0.040053 0.122277 0.000000
0.136226 0.059825 0.000000
0.987090 0.809287 1.000000
1.000000 0.757965 1.000000
1.000000 0.652129 1.000000
1.000000 0.507331 0.800669
1.000000 0.327036 0.584479
0.976041 0.000000 0.382288
0.704551 0.796561 1.000000
0.780344 0.753395 1.000000
0.884654 0.652533 0.876125
0.941594 0.514423 0.705639
0.947177 0.345328 0.519688
0.914756 0.057783 0.336876
0.383916 0.695487 0.692483
0.466712 0.669495 0.668071
0.600453 0.600453 0.600453
0.702485 0.494302 0.493191
0.752220 0.358183 0.360755
0.755103 0.170912 0.217170
0.000000 0.547278 0.351902
0.110784 0.532854 0.338416
0.295322 0.491712 0.299429
0.418308 0.422087 0.232478
0.492761 0.325786 0.139680
0.522147 0.197399 0.012107
0.000000 0.380919 0.000000
0.000000 0.372625 0.000000
0.000000 0.348151 0.000000
0.089753 0.303383 0.000000
0.211694 0.236320 0.000000
0.265552 0.145503 0.000000
0.000000 0.200905 0.000000
0.000000 0.195864 0.000000
0.000000 0.181218 0.000000
0.000000 0.156015 0.000000
0.000000 0.119231 0.000000
0.114002 0.056151 0.000000
0.929340 0.710855 1.000000
0.943804 0.679084 1.000000
0.971522 0.594827 1.000000
0.987834 0.465223 0.969676
0.978122 0.288991 0.758550
0.942008 0.000000 0.552261
0.718346 0.713352 1.000000
0.760402 0.681494 1.000000
0.834288 0.599048 1.000000
0.888225 0.474602 0.877900
0.904008 0.310297 0.693076
0.884758 0.000000 0.504974
0.383694 0.646115 0.864556
0.449466 0.623519 0.840555
0.566795 0.561587 0.773548
0.666645 0.462391 0.665724
0.722887 0.329539 0.530165
0.734928 0.128501 0.380652
0.000000 0.520296 0.521503
0.036380 0.506597 0.507705
0.269113 0.467190 0.467817
0.399544 0.399544 0.399544
0.480079 0.304085 0.306986
0.515289 0.171487 0.197663
0.000000 0.365039 0.205882
0.000000 0.356820 0.197065
0.000000 0.332357 0.170902
0.098516 0.287511 0.123201
0.208762 0.220872 0.050824
0.255649 0.130340 0.000000
0.000000 0.191888 0.000000
0.000000 0.187071 0.000000
0.000000 0.173083 0.000000
0.000000 0.149051 0.000000
0.000000 0.112175 0.000000
0.081414 0.046441 0.000000
0.857154 0.612022 1.000000
0.867726 0.587472 1.000000
0.891042 0.518397 1.000000
0.911514 0.402297 1.000000
0.913932 0.224625 0.907517
0.892927 0.000000 0.704739
0.693094 0.619686 1.000000
0.719182 0.595109 1.000000
0.772986 0.527242 1.000000
0.822484 0.415853 1.000000
0.846373 0.253611 0.844072
0.839929 0.000000 0.657096
0.367028 0.581049 1.000000
0.419488 0.561673 0.985727
0.521134 0.507048 0.921872
0.617010 0.415645 0.817314
0.678687 0.285687 0.682689
0.700354 0.029520 0.530196
0.000000 0.481801 0.674208
0.000000 0.468996 0.660323
0.210410 0.431797 0.620017
0.360174 0.366749 0.550469
0.450725 0.272229 0.455035
0.494529 0.130198 0.340256
0.000000 0.342205 0.352141
0.000000 0.334008 0.343008
0.000000 0.309450 0.315858
0.053727 0.264542 0.267123
0.197595 0.197595 0.197595
0.247600 0.104711 0.113268
0.000000 0.177970 0.041099
0.000000 0.173461 0.031026
0.000000 0.160373 0.000957
0.000000 0.137414 0.000000
0.000000 0.099499 0.000000
0.039391 0.026997 0.000000
0.762585 0.506286 1.000000
0.772182 0.485943 1.000000
0.795118 0.426388 1.000000
0.820528 0.317880 1.000000
0.834325 0.107863 1.000000
0.827867 0.000000 0.839139
0.628682 0.518932 1.000000
0.648165 0.498843 1.000000
0.692516 0.440910 1.000000
0.740772 0.338383 1.000000
0.772754 0.163482 0.973440
0.778879 0.000000 0.792403
0.307028 0.504445 1.000000
0.355288 0.487701 1.000000
0.451510 0.439323 1.000000
0.547844 0.354516 0.948030
0.616405 0.223224 0.817677
0.648693 0.000000 0.666083
0.000000 0.433016 0.809509
0.000000 0.421131 0.795856
0.016293 0.386229 0.756052
0.286611 0.323832 0.686751
0.397729 0.229332 0.590386
0.453818 0.057748 0.471341
0.000000 0.312162 0.484569
0.000000 0.304003 0.474972
0.000000 0.279613 0.446488
0.000000 0.235021 0.395395
0.145764 0.167895 0.322385
0.222794 0.067884 0.233053
0.000000 0.160119 0.170940
0.000000 0.155882 0.164998
0.000000 0.143510 0.147690
0.000000 0.119867 0.118003
0.000000 0.079059 0.077187
0.000000 0.000000 0.000000
